!!!COM: Scriabin, Alexander
!!!OTL@@FR: Sonate no 6
!!!OTL@@EN: Sonata No. 6
!!!OPS: 62
!!!ODT: 1911–1912
!!!AGN: Sonata
**kern	**kern	**dynam	**kern	**dynam
*staff3	*staff2	*staff2/3	*staff1	*staff1/2
*Ipiano	*Ipiano	*	*Ipiano	*
*clefF4	*clefF4	*	*clefG2	*
*k[]	*k[]	*	*k[]	*
*X:	*X:	*	*X:	*
*M3/4	*M3/4	*	*M3/4	*
=1	=1	=1	=1	=1
.	[8qDD 8qGG [8qF	.	8qB-X	.
*	*^	*	*	*
2.r	4rEE	2.DD] 2.AA-X 2.F]	.	2.Bn 2.f 2.cc#X	.
.	16DDDKL 16DD	.	.	.	.
.	8.DDDJ 8.DD	.	.	.	.
.	4rEE	.	.	.	.
*	*v	*v	*	*	*
=2	=2	=2	=2	=2
2.r	4r	.	4r	.
.	4DD 4AAn 4F	.	4B 4f 4cc#X	.
.	4DD 4AA-X 4F	.	4B-X	.
=3	=3	=3	=3	=3
2.r	8DD 8GG 8F	.	24BnLL	.
.	.	.	24cc#XJ	.
.	.	.	24r	.
.	8r	.	24bL	.
.	.	.	24g	.
.	.	.	24fJJ	.
.	[2DD [2AA-X [2F	.	[2c#X	.
=4	=4	=4	=4	=4
2.r	4.DD] 4.AA-] 4.F]	.	4.c#]	.
.	4DD 4AA-X 4F	.	4c#X	.
.	8DD 8AA- 8F	.	8cn	.
=5	=5	=5	=5	=5
*	*^	*	*	*
2.r	4.AAn	[2.DD [2.F	.	[2.B [2.f [2.cc#X	.
.	8GG#X	.	.	.	.
.	[4AA	.	.	.	.
=6	=6	=6	=6	=6	=6
2.r	4.AA]	4.DD] 4.F]	.	4.B] 4.f] 4.cc#]	.
.	4AA	4.DD 4.F	.	4c#X	.
.	8AA-X	.	.	8cn	.
=7	=7	=7	=7	=7	=7
2.r	4.AAn	[2.DD [2.F	.	[2.B [2.f [2.cc#X	.
.	8GG#X	.	.	.	.
.	[4AA	.	.	.	.
=8	=8	=8	=8	=8	=8
2.r	8AA]	8DD] 8F]	.	8B] 8f] 8cc#]	.
.	8rEE	8rc	.	8r	.
.	4rEE	4DD 4AA 4F	.	4B 4f 4cc#X	.
.	4rEE	4DD 4AA-X 4F	.	4B-X	.
*	*v	*v	*	*	*
=9	=9	=9	=9	=9
2.r	16GGLL 16F	.	24BnLL	.
.	.	.	24cc#XJ	.
.	16DDJJ	.	.	.
.	.	.	24r	.
.	8r	.	24bL	.
.	.	.	24g	.
.	.	.	24fJJ	.
.	16EE#XLL 16D	.	2G#X 2c#X	.
.	16BBBJJ	.	.	.
.	8r	.	.	.
.	16BBBLL	.	.	.
.	16BBBBJJ	.	.	.
.	8r	.	.	.
=10	=10	=10	=10	=10
2.r	16BB-XLL 16A-X	.	24dLL	.
.	.	.	24eeJ	.
.	16FFJJ	.	.	.
.	.	.	24r	.
.	8r	.	24ddL	.
.	.	.	24b-X	.
.	.	.	24a-XJJ	.
.	16GG#XLL 16F	.	2Bn 2e	.
.	16DDJJ	.	.	.
.	8r	.	.	.
.	16DDLL	.	.	.
.	16DDDJJ	.	.	.
.	8r	.	.	.
=11	=11	=11	=11	=11
*	*	*	*^	*
*	*	*	*	*^	*
2.r	16D-XLL 16c-X	.	[2.f	4rc	6f	.
.	16AA-XJJ	.	.	.	.	.
.	8r	.	.	.	.	.
.	.	.	.	.	[12g	.
.	16FLL 16c-	.	.	6rc	6g]	.
.	16GGJJ	.	.	.	.	.
.	8r	.	.	.	.	.
.	.	.	.	[12a-	12a-X	.
.	4r	.	.	4a-]	12b-XL	.
.	.	.	.	.	12cc-X	.
.	.	.	.	.	12dd-XJ	.
=12	=12	=12	=12	=12	=12	=12
2.r	16FnLL 16c-X	.	8f]	4a-X	12ff-XL	.
.	16DD-XJJ 16GG	.	.	.	.	.
.	.	.	.	.	12ee-X	.
.	8r	.	8r	.	.	.
.	.	.	.	.	12ee--J	.
.	[8qDD- [8qGG	.	.	.	.	.
.	2DD-] 2GG] 2F 2c-	.	2e--	4rc	[4b-X	.
.	.	.	.	4rc	12b-L]	.
.	.	.	.	.	12b--	.
.	.	.	.	.	12a-J	.
*	*	*	*	*v	*v	*
=13	=13	=13	=13	=13	=13
*	*^	*	*	*	*
2.r	4AA-	16AA-XKL	.	4Fn 4c-X	8f-XL	.
.	.	8DD-X	.	.	.	.
.	.	.	.	.	8e-XJ	.
.	.	16DD-Jk	.	.	.	.
.	.	8qGG	.	.	.	.
.	4AA-	16AA-KL	.	2F 2B-X	8e--L	.
.	.	8DD-	.	.	.	.
.	.	.	.	.	[8d-XJ	.
.	.	16DD-Jk	.	.	.	.
.	4GG	16GGKL	.	.	12d-L]	.
.	.	8DD-	.	.	.	.
.	.	.	.	.	12f-X	.
.	.	.	.	.	12gJ	.
.	.	[16DD-Jk	.	.	.	.
*	*	*	*	*v	*v	*
=14	=14	=14	=14	=14	=14
2.r	4rD	12DD-L] 12GG-X 12F-X 12B-X 12f-X	.	[2b-X	.
.	.	24DD-XL	.	.	.
.	.	24GG-	.	.	.
.	.	24F-	.	.	.
.	.	24B-JJ	.	.	.
.	4rEE	4a-X	.	.	.
.	12rEE	12a-L	.	12b-]	.
.	12rEE	12a--	.	12r	.
.	24GG-LL	12DD-J 12F-	.	12B-X	.
.	24GGnJJ	.	.	.	.
=15	=15	=15	=15	=15	=15
2.r	4rEE	2.DDn 2.AA-X 2.Fn	.	2.Bn 2.fn 2.cc#X	.
.	16DDDKL 16DD	.	.	.	.
.	8.DDDJ 8.DD	.	.	.	.
.	4rEE	.	.	.	.
*	*v	*v	*	*	*
=16	=16	=16	=16	=16
2.r	4r	.	4r	.
.	4DD 4AAn 4F	.	4B 4f 4cc#X	.
.	4DD 4AA-X 4F	.	4B-X	.
=17	=17	=17	=17	=17
2.r	8DD 8GG 8F	.	24BnLL	.
.	.	.	24cc#XJ	.
.	.	.	24r	.
.	8r	.	24bL	.
.	.	.	24g	.
.	.	.	24fJJ	.
.	[2DD [2AA-X [2F	.	[2c#X	.
=18	=18	=18	=18	=18
2.r	4.DD] 4.AA-] 4.F]	.	4.c#]	.
.	4DD 4AA-X 4F	.	4c#X	.
.	8DD 8AA- 8F	.	8cn	.
=19	=19	=19	=19	=19
*	*^	*	*	*
2.r	4.AAn	[2.DD [2.F	.	[2.B [2.f [2.cc#X	.
.	8GG#X	.	.	.	.
.	[4AA	.	.	.	.
=20	=20	=20	=20	=20	=20
2.r	4.AA]	4.DD] 4.F]	.	4.B] 4.f] 4.cc#]	.
.	4AA	4.DD 4.F	.	4c#X	.
.	8AA-X	.	.	8cn	.
=21	=21	=21	=21	=21	=21
2.r	4.AAn	[2.DD [2.F	.	[2.B [2.f [2.cc#X	.
.	8GG#X	.	.	.	.
.	[4AA	.	.	.	.
=22	=22	=22	=22	=22	=22
2.r	8AA]	8DD] 8F]	.	8B] 8f] 8cc#]	.
.	8rEE	8rc	.	8r	.
.	4rEE	4DD 4AA 4F	.	4B 4f 4cc#X	.
.	4rEE	4DD 4AA-X 4F	.	4B-X	.
*	*v	*v	*	*	*
=23	=23	=23	=23	=23
2.r	16GGLL 16F	.	24BnLL	.
.	.	.	24cc#XJ	.
.	16DDJJ	.	.	.
.	.	.	24r	.
.	8r	.	24bL	.
.	.	.	24g	.
.	.	.	24fJJ	.
.	16EE#XLL 16D	.	2G#X 2c#X	.
.	16BBBJJ	.	.	.
.	8r	.	.	.
.	16BBBLL	.	.	.
.	16BBBBJJ	.	.	.
.	8r	.	.	.
=24	=24	=24	=24	=24
2.r	16BB-XLL 16A-X	.	24dLL	.
.	.	.	24eeJ	.
.	16FFJJ	.	.	.
.	.	.	24r	.
.	8r	.	24ddL	.
.	.	.	24b-X	.
.	.	.	24a-XJJ	.
.	8r	.	8e	.
.	4FF 4C-X	.	4A-X 4e	.
.	8FF 8C-	.	8A- 8e-X	.
=25	=25	=25	=25	=25
2.r	16BB-XLL 16A-X	.	24dLL	.
.	.	.	24eenJ	.
.	16FFJJ	.	.	.
.	.	.	24r	.
.	8r	.	24ddL	.
.	.	.	24b-X	.
.	.	.	24a-XJJ	.
.	16GG#XLL 16F	.	2Bn 2e	.
.	16DDJJ	.	.	.
.	8r	.	.	.
.	16DDLL	.	.	.
.	16DDDJJ	.	.	.
.	8r	.	.	.
=26	=26	=26	=26	=26
2.r	16D-XLL 16c-X	.	24fLL	.
.	.	.	24ggJ	.
.	16AA-XJJ	.	.	.
.	.	.	24r	.
.	8r	.	24ffL	.
.	.	.	24dd-X	.
.	.	.	24cc-XJJ	.
.	12r	.	12g	.
.	6AA- 6E--	.	6c-X 6g	.
.	6AA- 6E--	.	6c- 6g	.
.	12AA- 12E--	.	12c- 12g-X	.
=27	=27	=27	=27	=27
*M9/8	*M9/8	*	*M9/8	*
*	*^	*	*^	*
*	*	*	*	*	*^	*
8%9r	16e-LL	4.e-X	.	[2.f	4rc	4f	.
.	16c-X	.	.	.	.	.	.
.	16D-X	.	.	.	.	.	.
.	16AA-XJJ	.	.	.	.	.	.
.	8rEE	.	.	.	8rc	[8gn	.
.	16e-LL	4.e-	.	.	4rc	4g]	.
.	16c-	.	.	.	.	.	.
.	16F	.	.	.	.	.	.
.	16GGJJ	.	.	.	.	.	.
.	8rEE	.	.	.	[8a-	8a-X	.
.	16e--LL	4.e--	.	4.f_	4.a-]	8b-XL	.
.	16c-	.	.	.	.	.	.
.	16F	.	.	.	.	8cc-X	.
.	16GGJJ	.	.	.	.	.	.
.	8rEE	.	.	.	.	8dd-XJ	.
=28	=28	=28	=28	=28	=28	=28	=28
8%9r	16cc-LL	4.cc-X	.	8fn]	4.a-X	8ff-XL	.
.	16fn	.	.	.	.	.	.
.	16c-X	.	.	8r	.	8ee-X	.
.	16Fn	.	.	.	.	.	.
.	16GG	.	.	8r	.	8ee--J	.
.	16DD-XJJ	.	.	.	.	.	.
.	8rEE	8rc	.	2.e--	4rc	[4.b-X	.
.	4rEE	16DD-LL	.	.	.	.	.
.	.	16GG	.	.	.	.	.
.	.	16F	.	.	8rc	.	.
.	.	16c-JJ	.	.	.	.	.
.	4rEE	8f	.	.	4rc	8b-L]	.
.	.	8rc	.	.	.	8b--	.
.	8rEE	8rc	.	.	8rc	8a-J	.
*	*v	*v	*	*	*	*	*
*	*	*	*	*v	*v	*
*	*	*	*v	*v	*
=29	=29	=29	=29	=29
*M3/4	*M3/4	*	*M3/4	*
*	*^	*	*^	*
2.r	4AA-	16AA-XKL	.	4Fn 4c-X	8f-XL	.
.	.	8DD-X	.	.	.	.
.	.	.	.	.	8e-XJ	.
.	.	16DD-Jk	.	.	.	.
.	.	8qGG	.	.	.	.
.	4AA-	16AA-KL	.	2F 2B-X	8e--L	.
.	.	8DD-	.	.	.	.
.	.	.	.	.	[8d-XJ	.
.	.	16DD-Jk	.	.	.	.
.	4GG	16GGKL	.	.	12d-L]	.
.	.	8DD-	.	.	.	.
.	.	.	.	.	12f-X	.
.	.	.	.	.	12gJ	.
.	.	[16DD-Jk	.	.	.	.
*	*v	*v	*	*	*	*
=30	=30	=30	=30	=30	=30
2.r	12DD-] 12GG-X 12F-X	.	8B-X 8f-X	4b-X	.
.	24DD-XLL	.	.	.	.
.	24GG-	.	8rc	.	.
.	24F-	.	.	.	.
.	24B-XJJ	.	.	.	.
.	4.a-X	.	4rc	2f- 2dd-X	.
.	.	.	4rc	.	.
.	8a--	.	.	.	.
*	*	*	*v	*v	*
=31	=31	=31	=31	=31
*M9/8	*M9/8	*	*M9/8	*
*	*^	*	*^	*
*	*	*	*	*	*^	*
8%9r	16c#LL	4.c#X	.	[2.d#	4rc	4d#X	.
.	16An	.	.	.	.	.	.
.	16BBn	.	.	.	.	.	.
.	16FF#XJJ	.	.	.	.	.	.
.	8rEE	.	.	.	8rc	[8e#X	.
.	16c#LL	4.c#	.	.	4rc	4e#]	.
.	16A	.	.	.	.	.	.
.	16D#X	.	.	.	.	.	.
.	16EE#XJJ	.	.	.	.	.	.
.	8rEE	.	.	.	[8f#	8f#X	.
.	16cLL	4.cn	.	4.d#_	4.f#]	8g#XL	.
.	16A	.	.	.	.	.	.
.	16D#	.	.	.	.	8a	.
.	16EE#JJ	.	.	.	.	.	.
.	8rEE	.	.	.	.	8bJ	.
=32	=32	=32	=32	=32	=32	=32	=32
8%9r	16aLL	4.a	.	8d#]	4.f#X	8ddnL	.
.	16d#X	.	.	.	.	.	.
.	16A	.	.	8r	.	8cc#X	.
.	16D#X	.	.	.	.	.	.
.	16EE#X	.	.	8r	.	8ccnJ	.
.	16BBBJJ	.	.	.	.	.	.
.	8rEE	8rc	.	2.c	4rc	[4.g#X	.
.	4rEE	16BBBLL	.	.	.	.	.
.	.	16EE#	.	.	.	.	.
.	.	16D#	.	.	8rc	.	.
.	.	16AJJ	.	.	.	.	.
.	4rEE	8d#	.	.	4rc	8g#L]	.
.	.	8rc	.	.	.	8gn	.
.	8rEE	8rc	.	.	8rc	8f#J	.
*	*v	*v	*	*	*	*	*
*	*	*	*	*v	*v	*
*	*	*	*v	*v	*
=33	=33	=33	=33	=33
*M3/4	*M3/4	*	*M3/4	*
*	*^	*	*^	*
2.r	4FF#	16FF#XKL	.	4D#X 4A	8dnL	.
.	.	8BBB	.	.	.	.
.	.	.	.	.	8c#XJ	.
.	.	16BBBJk	.	.	.	.
.	.	8qEE#X	.	.	.	.
.	4FF#	16FF#KL	.	2D# 2G#X	8cnL	.
.	.	8BBB	.	.	.	.
.	.	.	.	.	[8BJ	.
.	.	16BBBJk	.	.	.	.
.	4EE#	16EE#KL	.	.	12BL]	.
.	.	8BBB	.	.	.	.
.	.	.	.	.	12dn	.
.	.	.	.	.	12e#XJ	.
.	.	[16BBBJk	.	.	.	.
*	*v	*v	*	*	*	*
=34	=34	=34	=34	=34	=34
2.r	12BBB] 12EEn 12Dn	.	8G#X 8d	4g#X	.
.	24BBBLL	.	.	.	.
.	24EE	.	8rc	.	.
.	24D	.	.	.	.
.	24G#XJJ	.	.	.	.
.	4.f#X	.	4rc	2d 2cc#X	.
.	.	.	4rc	.	.
.	8fn	.	.	.	.
=35	=35	=35	=35	=35	=35
*	*^	*	*	*	*
2.r	4FF	16FFKL	.	4Dn 4A-X	8d-XL	.
.	.	8BBB-X	.	.	.	.
.	.	.	.	.	8cnJ	.
.	.	16BBB-Jk	.	.	.	.
.	.	8qEE	.	.	.	.
.	4FF	16FFKL	.	2D 2Gn	8c-XL	.
.	.	8BBB-	.	.	.	.
.	.	.	.	.	[8B-XJ	.
.	.	16BBB-Jk	.	.	.	.
.	4EE	16EEKL	.	.	12B-L]	.
.	.	8BBB-	.	.	.	.
.	.	.	.	.	12d-X	.
.	.	.	.	.	12eJ	.
.	.	[16BBB-Jk	.	.	.	.
*	*v	*v	*	*	*	*
=36	=36	=36	=36	=36	=36
2.r	12BBB-] 12EE-X 12D-X	.	8G 8d-X	4g	.
.	24BBB-XLL	.	.	.	.
.	24EE-	.	8rc	.	.
.	24D-	.	.	.	.
.	24GJJ	.	.	.	.
.	4.f	.	4rc	2d-X 2dd-X	.
.	.	.	4rc	.	.
.	8f-X	.	.	.	.
*	*	*	*v	*v	*
=37	=37	=37	=37	=37
*	*^	*	*	*
2.r	12rEE	4rc	.	4r	.
.	24BBB--LL	.	.	.	.
.	24EE-X	.	.	.	.
.	24D-X	.	.	.	.
.	24GJJ	.	.	.	.
.	4.fn	4rc	.	2d-X 2dd-X	.
.	.	4d-X	.	.	.
.	8f-X	.	.	.	.
=38	=38	=38	=38	=38	=38
2.r	12rEE	4e--	.	4r	.
.	24AAA-XLL	.	.	.	.
.	24FF-X	.	.	.	.
.	36BB-X	.	.	.	.
.	36E--	.	.	.	.
.	36A-XJJ	.	.	.	.
.	4.g-X	4d-X	.	4d-X 4dd-X	.
.	.	4B-X	.	4r	.
.	8fn	.	.	.	.
=39	=39	=39	=39	=39	=39
2.r	2c-	2c-X	.	4r	.
.	.	.	.	[8qf	.
.	.	.	.	2f_ [2dd-X	.
.	4D-X	4rc	.	.	.
*	*v	*v	*	*	*
=40	=40	=40	=40	=40
2.r	4AA-X	.	8f] 8dd-]	.
.	.	.	4ee--	.
.	4r	.	.	.
.	.	.	4ff	.
.	4r	.	.	.
.	.	.	8gg	.
=41	=41	=41	=41	=41
.	.	.	8qee--	.
*	*	*	*^	*
2.r	4r	.	4rc	[2.bb-X	.
.	[16qCC-XLL	.	.	.	.
.	[16qC-XJJ	.	.	.	.
.	2C-] 2F	.	2e-- 2b-X	.	.
=42	=42	=42	=42	=42	=42
2.r	2C-X 2F	.	2e-- 2b-X	2.bb-]	.
.	4C- 4F	.	4e-- 4b--	.	.
=43	=43	=43	=43	=43	=43
.	.	.	[8qa-X	.	.
*	*^	*	*	*	*
2.r	4rEE	4rc	.	2.a-_	2gg	.
.	.	[8qcn	.	.	.	.
.	4d	2c]	.	.	.	.
.	4A-X	.	.	.	[4gg-X	.
=44	=44	=44	=44	=44	=44	=44
2.r	4BB-X	4rc	.	8a-]	4gg-]	.
.	.	.	.	8rc	.	.
.	.	16qcLL	.	.	.	.
.	.	16qcc	.	.	.	.
.	.	16qa-X	.	.	.	.
.	.	16qdJJ	.	.	.	.
.	4rEE	4c	.	4rc	4.ff	.
.	4rEE	4c-X	.	4rc	.	.
.	.	.	.	.	8ff-X	.
=45	=45	=45	=45	=45	=45	=45
.	.	[8qcn	.	[8qa-X	.	.
2.r	4BB-X 4G-X 4f-X	2c]	.	2.a-_	4aa-X	.
.	4rEE	.	.	.	4ee-X	.
.	4rEE	4e-X	.	.	4raa	.
=46	=46	=46	=46	=46	=46	=46
2.r	4.BB-X 4.G-X 4.c	4f-X	.	4a-]	2raa	.
.	.	4e-X	.	4rc	.	.
.	8rEE	.	.	.	.	.
.	4rEE	4c	.	4rc	4raa	.
*	*	*	*	*v	*v	*
=47	=47	=47	=47	=47	=47
2.r	2d-	2d-X	.	4r	.
.	.	.	.	[8qgn	.
.	.	.	.	2g_ [2ee-X	.
.	4E-X	4rc	.	.	.
*	*v	*v	*	*	*
=48	=48	=48	=48	=48
2.r	4BB-X	.	8g] 8ee-]	.
.	.	.	4ff-X	.
.	4r	.	.	.
.	.	.	4gg	.
.	4r	.	.	.
.	.	.	8aa	.
=49	=49	=49	=49	=49
.	.	.	8qeen	.
*	*	*	*^	*
2.r	4r	.	4rc	[2.ccc	.
.	16q[AAALL	.	.	.	.
.	[16qAAJJ	.	.	.	.
.	2AA] 2G	.	2c#X 2g	.	.
=50	=50	=50	=50	=50	=50
2.r	2AA 2G	.	2c#X 2g	4ccc]	.
.	.	.	.	2bb-X	.
.	4AA 4G	.	4c# 4g	.	.
=51	=51	=51	=51	=51	=51
2.r	16%3r	.	4rc	4bb-X	.
.	16%3c#X	.	.	.	.
.	.	.	[8qg	16qgLL	.
.	.	.	.	[16qcc#XJJ	.
.	.	.	2g_	2cc#_ [2aa	.
.	16%3G	.	.	.	.
.	16%3AA	.	.	.	.
=52	=52	=52	=52	=52	=52
2.r	4EE	.	8g]	8cc#] 8aa]	.
.	.	.	4rc	4bb-X	.
.	4r	.	.	.	.
.	.	.	4rc	4ccc#X	.
.	4r	.	.	.	.
.	.	.	8rc	8ddd#X	.
=53	=53	=53	=53	=53	=53
2.r	12AAA 12AA 12G 12c#X 12b-X	.	4rc	8ff#X 8ccc#X 8fff#X	.
.	24AA-XLL	.	.	.	.
.	24F-X	.	.	8raa	.
.	24B-X	.	.	.	.
.	24e--JJ	.	.	.	.
.	8r	.	4.g-X	4raa	.
.	8e--	.	.	.	.
.	8d-XL	.	.	4raa	.
.	8B-J	.	8fn	.	.
=54	=54	=54	=54	=54	=54
*	*^	*	*	*	*
2.r	12rEE	4.e--	.	4rc	2raa	.
.	24AA-XLL	.	.	.	.	.
.	24F-X	.	.	.	.	.
.	24B-X	.	.	.	.	.
.	24e--JJ	.	.	.	.	.
.	8rEE	.	.	4.g-X	.	.
.	8e--	8rc	.	.	.	.
.	8d-XL	4rc	.	.	4raa	.
.	8B-J	.	.	8fn	.	.
*	*	*	*	*v	*v	*
=55	=55	=55	=55	=55	=55
2.r	4rEE	4c-X	.	4r	.
.	.	.	.	8qf	.
.	8rEE	4rc	.	[2dd-X	.
.	8f	.	.	.	.
.	8c-L	4rc	.	.	.
.	8D-XJ	.	.	.	.
=56	=56	=56	=56	=56	=56
*	*	*	*	*^	*
2.r	8AA-X	2.ryy	.	4rc	8dd-]	.
.	8r	.	.	.	4ee--	.
.	4r	.	.	4b-X	.	.
.	.	.	.	.	4ff	.
.	4r	.	.	4e--	.	.
.	.	.	.	.	8gg	.
*	*v	*v	*	*	*	*
*	*	*	*v	*v	*
=57	=57	=57	=57	=57
*M5/8	*M5/8	*	*M5/8	*
3...r	3...r	.	8r	.
.	.	.	8dd-XL	.
.	.	.	8ee--	.
.	.	.	8ff	.
.	.	.	8ggJ	.
=58	=58	=58	=58	=58
*M3/4	*M3/4	*	*M3/4	*
.	.	.	8qee--	.
*	*	*	*^	*
2.r	4r	.	4rc	[2.bb-X	.
.	[16qCC-XLL	.	.	.	.
.	[16qC-XJJ	.	.	.	.
.	2C-] 2F	.	2e-- 2b-X	.	.
=59	=59	=59	=59	=59	=59
2.r	2C-X 2F	.	2e-- 2b-X	2.bb-]	.
.	4C- 4F	.	4e-- 4b--	.	.
*	*	*	*v	*v	*
=60	=60	=60	=60	=60
.	.	.	8qa-X	.
*	*^	*	*	*
2.r	4rEE	4rc	.	2gg	.
.	8rEE	2cn	.	.	.
.	8a-X	.	.	.	.
.	8dL	.	.	[4gg-X	.
.	8A-XJ	.	.	.	.
=61	=61	=61	=61	=61	=61
2.r	4BB-X	4rc	.	4gg-]	.
.	.	16qcLL	.	.	.
.	.	16qcc	.	.	.
.	.	16qa-X	.	.	.
.	.	16qdJJ	.	.	.
.	4rEE	4c	.	4.ff	.
.	4rEE	4c-X	.	.	.
.	.	.	.	8ff-X	.
=62	=62	=62	=62	=62	=62
.	.	[8qcn	.	8qa-X	.
2.r	4BB-X 4G-X 4f-X	2c]	.	4aa-X	.
.	4rEE	.	.	4ee-X	.
.	.	.	.	8qa-	.
.	4BB- 4A-X 4d	4rc	.	4ggn	.
*	*v	*v	*	*	*
=63	=63	=63	=63	=63
.	16qcLL	.	.	.
.	16qcc	.	.	.
.	16qa-X	.	.	.
.	16qdJJ	.	.	.
2.r	2c	.	4gg-X	.
.	.	.	4.ff	.
.	4c-X	.	.	.
.	.	.	8ff-X	.
=64	=64	=64	=64	=64
.	[8qcn	.	8qa-X	.
*	*^	*	*	*
2.r	4BB-X 4G-X 4f-X	4.c]	.	4aa-X	.
.	4rEE	.	.	4ee-X	.
.	.	8f-	.	.	.
.	4rEE	8e-XL	.	4r	.
.	.	8cJ	.	.	.
=65	=65	=65	=65	=65	=65
2.r	8rEE	4.f-X	.	2.r	.
.	8c	.	.	.	.
.	8G-XL	.	.	.	.
.	8BB-XJ	8f-	.	.	.
.	8BBB-X	8e-XL	.	.	.
.	8rEE	8cJ	.	.	.
=66	=66	=66	=66	=66	=66
2.r	4rEE	4d-X	.	4r	.
.	.	.	.	8qgn	.
.	8rEE	4rc	.	[2ee-X	.
.	8g	.	.	.	.
.	8d-L	4rc	.	.	.
.	8E-XJ	.	.	.	.
=67	=67	=67	=67	=67	=67
*	*	*	*	*^	*
2.r	8BB-X	2.ryy	.	4rc	8ee-]	.
.	8r	.	.	.	4ff-X	.
.	4r	.	.	4cc	.	.
.	.	.	.	.	4gg	.
.	4r	.	.	4f-X	.	.
.	.	.	.	.	8aa	.
*	*v	*v	*	*	*	*
*	*	*	*v	*v	*
=68	=68	=68	=68	=68
*M5/8	*M5/8	*	*M5/8	*
3...r	3...r	.	8r	.
.	.	.	8ee-XL	.
.	.	.	8ff-X	.
.	.	.	8gg	.
.	.	.	8aaJ	.
=69	=69	=69	=69	=69
*M3/4	*M3/4	*	*M3/4	*
.	.	.	8qeen	.
*	*	*	*^	*
2.r	4r	.	4rc	[2.ccc	.
.	[16qAAALL	.	.	.	.
.	[16qAAJJ	.	.	.	.
.	2AA] 2G	.	2c#X 2g	.	.
=70	=70	=70	=70	=70	=70
2.r	2AA 2G	.	2c#X 2g	4ccc]	.
.	.	.	.	2bb-X	.
.	4AA 4G	.	4c# 4g	.	.
=71	=71	=71	=71	=71	=71
*	*^	*	*	*	*
2.r	4r	2.ryy	.	4rc	4bb-X	.
.	.	.	.	[8qg	16qgLL	.
.	.	.	.	.	[16qcc#XJJ	.
.	8r	.	.	2g_	2cc#_ [2aa	.
.	8c#X	.	.	.	.	.
.	8GL	.	.	.	.	.
.	8AAJ	.	.	.	.	.
=72	=72	=72	=72	=72	=72	=72
2.r	8EE	4rc	.	8g]	8cc#] 8aa]	.
.	8rEE	.	.	4rc	4bb-X	.
.	4rEE	4f#X	.	.	.	.
.	.	.	.	4rc	4ccc#X	.
.	4rEE	4B-X	.	.	.	.
.	.	.	.	8rc	8ddd#X	.
*	*v	*v	*	*	*	*
*	*	*	*v	*v	*
=73	=73	=73	=73	=73
*M5/8	*M5/8	*	*M5/8	*
3...r	3...r	.	8r	.
.	.	.	8aaL	.
.	.	.	8bb-X	.
.	.	.	8ccc#X	.
.	.	.	8ddd#XJ	.
=74	=74	=74	=74	=74
*M3/4	*M3/4	*	*M3/4	*
.	.	.	8qbb-X	.
*	*^	*	*	*
2.r	8DD#X 8AA 8G 8c#X	4rc	.	[2.fff#X	.
.	8rEE	.	.	.	.
.	4rEE	[2A	.	.	.
.	4rEE	.	.	.	.
=75	=75	=75	=75	=75	=75
2.r	2rEE	8A]	.	2fff#]	.
.	.	4B-X	.	.	.
.	.	4c#X	.	.	.
.	4rEE	.	.	4bb-X	.
.	.	8d#X	.	.	.
=76	=76	=76	=76	=76	=76
*	*	*	*	*^	*
2.r	4rEE	8rc	.	4rc	4raa	.
.	.	[8f#X	.	.	.	.
.	.	.	.	.	16qgLL	.
.	.	.	.	[8qg	[16qcc#XJJ	.
.	8rEE	2f#_	.	2g_	2cc#_ [2aa	.
.	8c#X	.	.	.	.	.
.	8GL	.	.	.	.	.
.	8AAJ	.	.	.	.	.
=77	=77	=77	=77	=77	=77	=77
2.r	8EE	2f#]	.	8g]	8cc#] 8aa]	.
.	8rEE	.	.	4rc	4bb-X	.
.	4rEE	.	.	.	.	.
.	.	.	.	4rc	4ccc#X	.
.	4rEE	4B-X	.	.	.	.
.	.	.	.	8rc	8ddd#X	.
*	*	*	*	*v	*v	*
=78	=78	=78	=78	=78	=78
.	.	.	.	8qbb-X	.
2.r	8DD#X 8AA 8G 8c#X	4rc	.	[2.fff#X	.
.	8rEE	.	.	.	.
.	4rEE	[2A	.	.	.
.	4rEE	.	.	.	.
=79	=79	=79	=79	=79	=79
2.r	2rEE	8A]	.	2fff#]	.
.	.	4B-X	.	.	.
.	.	4c#X	.	.	.
.	4rEE	.	.	4bb-X	.
.	.	8d#X	.	.	.
*	*v	*v	*	*	*
=80	=80	=80	=80	=80
2.r	[2.f#X	.	8r	.
.	.	.	4a	.
.	.	.	8b-X	.
.	.	.	8cc#XL	.
.	.	.	8dd#XJ	.
=81	=81	=81	=81	=81
2.r	2.f#_	.	32aLLL	.
.	.	.	32b-X	.
.	.	.	32cc#X	.
.	.	.	32dd#XJ	.
.	.	.	16ff#XJJ	.
.	.	.	16r	.
.	.	.	4r	.
.	.	.	4r	.
=82	=82	=82	=82	=82
*M3/8	*M3/8	*	*M3/8	*
4.r	4f#]	.	4r	.
.	8r	.	80e-XLLLL	.
.	.	.	80f-X	.
.	.	.	80g	.
.	.	.	80a	.
.	.	.	80ccnJJJJ	.
.	.	.	16r	.
=83	=83	=83	=83	=83
4.r	16D#X 16c#X 16g	.	80aLLLL	.
.	.	.	80b-X	.
.	.	.	80cc#X	.
.	.	.	80dd#X	.
.	.	.	80ff#XJJJJ	.
.	16r	.	16r	.
.	8r	.	80ee-XLLLL	.
.	.	.	80ff-X	.
.	.	.	80gg	.
.	.	.	80aa	.
.	.	.	80cccnJJJJ	.
.	.	.	16r	.
.	8qA 8qB-X 8qc#X 8qd 8qf#X	.	32qaLLL	.
.	.	.	32qb-	.
.	.	.	32qcc#X	.
.	.	.	32qdd#	.
.	.	.	32qff#XJJJ	.
.	8D#	.	32aaLLL	.
.	.	.	32bb-X	.
.	.	.	32ccc#X	.
.	.	.	32ddd#XJJJ	.
=84	=84	=84	=84	=84
*	*^	*	*	*
4.r	8AA 8G 8c#X 8b-X	16rc	.	8ff#X 8fff#X	.
.	.	8B-XL	.	.	.
.	8rEE	.	.	8r	.
.	.	8c#X	.	.	.
.	8rEE	.	.	8r	.
.	.	16d#XJk	.	.	.
=85	=85	=85	=85	=85	=85
4.r	[4.CCn [4.Cn [4.B-X [4.e	[4.f#X	.	16r	.
.	.	.	.	8dd-XL	.
.	.	.	.	8ee	.
.	.	.	.	16ff#XJk	.
=86	=86	=86	=86	=86	=86
4.r	8CC] 8C] 8B-] 8e]	8f#]	.	[8aaL	.
.	8rEE	8rc	.	16aaJk]	.
.	.	.	.	16r	.
.	8rEE	8rc	.	80cLLLL	.
.	.	.	.	80d-X	.
.	.	.	.	80e	.
.	.	.	.	80f#X	.
.	.	.	.	80aJJJJ	.
.	.	.	.	16r	.
*	*v	*v	*	*	*
=87	=87	=87	=87	=87
4.r	16BB#X 16A#X 16e	.	80f#XLLLL	.
.	.	.	80g	.
.	.	.	80a#X	.
.	.	.	80b#X	.
.	.	.	80dd#XJJJJ	.
.	16r	.	16r	.
.	8r	.	80ccLLLL	.
.	.	.	80dd-X	.
.	.	.	80ee	.
.	.	.	80ff#X	.
.	.	.	80aanJJJJ	.
.	.	.	16r	.
.	8qF#X 8qG 8qA# 8qB#X 8qd#X	.	32qf#XLLL	.
.	.	.	32qg	.
.	.	.	32qa#X	.
.	.	.	32qb#X	.
.	.	.	32qdd#XJJJ	.
.	8BB#	.	32ff#XLLL	.
.	.	.	32gg	.
.	.	.	32aa#X	.
.	.	.	32bb#XJJJ	.
=88	=88	=88	=88	=88
*	*	*	*^	*
4.r	8AAn 8G 8c#X 8b-X	.	16rc	8dd#X 8ddd#X	.
.	.	.	8B-XL	.	.
.	8r	.	.	8raa	.
.	.	.	8c#X	.	.
.	8r	.	.	8raa	.
.	.	.	16d#XJk	.	.
=89	=89	=89	=89	=89	=89
4.r	4.CCn 4.Cn	.	4.B-X 4.e	[4.f#X	.
=90	=90	=90	=90	=90	=90
4.r	4.AAA 4.AA	.	4.G 4.c#X	4.f#]	.
=91	=91	=91	=91	=91	=91
4.r	4.CCn 4.Cn	.	4.B-X 4.e	4.g	.
*	*	*	*v	*v	*
=92	=92	=92	=92	=92
*M2/8	*M2/8	*	*M2/8	*
4r	8AA 8G	.	8B-XL 8c#X 8d#X 8f#X	.
.	8r	.	8B-J 8c# 8d# 8f# 8g	.
=93	=93	=93	=93	=93
.	.	.	[8qf#X	.
4r	8Cn 8B-X	.	8d-XL 8e 8f#] 8a 8ccn	.
.	8r	.	8d-J 8e 8f# 8a 8b-X	.
=94	=94	=94	=94	=94
4r	8C 8B-X	.	8d-XL 8e 8f#X 8a	.
.	8r	.	8d-J 8e 8f# 8a 8b-X	.
=95	=95	=95	=95	=95
.	.	.	[8qa	.
4r	8E-X 8d-X	.	8f-XL 8g 8a] 8cc 8ee-X	.
.	8r	.	8f-J 8g 8a 8cc 8dd-X	.
=96	=96	=96	=96	=96
*	*^	*	*	*
4r	8AA 8G 8c#X	24rc	.	8b-XL 8cc#X 8dd#X 8ff#X	.
.	.	24B-XLL	.	.	.
.	.	24c#JJ	.	.	.
.	8rEE	24d#XLL	.	8b-J 8cc# 8dd# 8ff# 8gg	.
.	.	24f#XJJ	.	.	.
.	.	24rc	.	.	.
=97	=97	=97	=97	=97	=97
.	.	.	.	[8qff#X	.
4r	8Cn 8B-X 8e	24rc	.	8dd-XL 8ee 8ff#] 8aa 8cccn	.
.	.	24d-XLL	.	.	.
.	.	24eJJ	.	.	.
.	8rEE	24f#XLL	.	8dd-J 8ee 8ff# 8aa 8bb-X	.
.	.	24aJJ	.	.	.
.	.	24rc	.	.	.
=98	=98	=98	=98	=98	=98
4r	8C 8B-X 8e	24rc	.	8b-XL 8dd-X 8ee 8ff#X 8aa	.
.	.	24d-XLL	.	.	.
.	.	24eJJ	.	.	.
.	8rEE	24f#XLL	.	8dd-J 8ee 8ff# 8aa 8bb-X	.
.	.	24aJJ	.	.	.
.	.	24rc	.	.	.
=99	=99	=99	=99	=99	=99
.	.	.	.	[8qaa	.
4r	8E-X 8d-X 8g	24rc	.	8ff-XL 8gg 8aa] 8ccc 8eee-X	.
.	.	24f-XLL	.	.	.
.	.	24gJJ	.	.	.
.	8rEE	24aLL	.	8ff-J 8gg 8aa 8ccc 8ddd-X	.
.	.	24ccJJ	.	.	.
.	.	24rc	.	.	.
*	*clefG2	*	*	*	*
=100	=100	=100	=100	=100	=100
.	.	.	.	[8qbb#X	.
4r	8F#X 8en 8a#X	24raa	.	8ggL 8aa#X 8bb#] 8ddd#X 8fff#X	.
.	.	24gLL	.	.	.
.	.	24a#JJ	.	.	.
.	8rc	24b#XLL	.	8ggJ 8aa# 8bb# 8ddd# 8eeen	.
.	.	24dd#XJJ	.	.	.
.	.	24raa	.	.	.
=101	=101	=101	=101	=101	=101
.	.	.	.	[8qddd#X	.
4r	8An 8g 8cc#X	24raa	.	8bb-XL 8ccc#X 8ddd#] 8fff#X 8aaan	.
.	.	24b-XLL	.	.	.
.	.	24cc#JJ	.	.	.
.	8rc	24dd#XLL	.	8bb-J 8ccc# 8ddd# 8fff# 8ggg	.
.	.	24ff#XJJ	.	.	.
.	.	24raa	.	.	.
*	*v	*v	*	*	*
=102	=102	=102	=102	=102
4r	8r	.	8r	.
.	8qf#X 8qg 8qa#X 8qb#X 8qdd#X	.	16qff#XLL	.
.	.	.	16qgg	.
.	.	.	16qaa#X	.
.	.	.	16qbb#X	.
.	.	.	16qddd#XJJ	.
.	[8B#X	.	8fff#X	.
=103	=103	=103	=103	=103
4r	8B#]	.	8fff#XL	.
.	8r	.	32fff#LL	.
.	.	.	32ggg	.
.	.	.	32aaa#X	.
.	.	.	32bbb#XJJJ	.
*	*clefF4	*	*	*
=104	=104	=104	=104	=104
4r	16AAn 16D#X 16B-X	.	16ddd#X 16fff#X 16bbb-X 16dddd#X	.
.	16r	.	32r	.
.	.	.	32d#X 32f#X 32b-X	.
.	40B-LLL	.	[8e [8g [8cc	.
.	40D#	.	.	.
.	40AA	.	.	.
.	40BB-X	.	.	.
.	40DD#XJJJ	.	.	.
=105	=105	=105	=105	=105
4r	40AAALLL	.	8eL] 8g] 8cc]	.
.	40DD#X	.	.	.
.	40BB-X	.	.	.
.	40FF#X	.	.	.
.	40CJJJ	.	.	.
.	[8d-X	.	[8f#XJ [8a [8dd-X	.
=106	=106	=106	=106	=106
4r	8d-]	.	8f#] 8a] 8dd-]	.
*	*clefG2	*	*	*
.	8qf#X 8qg 8qa#X 8qb#X 8qdd#X	.	16qff#XLL	.
.	.	.	16qgg	.
.	.	.	16qaa#X	.
.	.	.	16qbb#X	.
.	.	.	16qddd#XJJ	.
.	[8B#X	.	8fff#X	.
=107	=107	=107	=107	=107
4r	8B#]	.	8fff#XL	.
.	8r	.	32fff#LL	.
.	.	.	32ggg	.
.	.	.	32aaa#X	.
.	.	.	32bbb#XJJJ	.
*	*clefF4	*	*	*
=108	=108	=108	=108	=108
4r	16AA 16D#X 16B-X	.	16ddd#X 16fff#X 16bbb-X 16dddd#X	.
.	16r	.	32r	.
.	.	.	32d#X 32f#X 32b-X	.
.	40B-LLL	.	[8e [8g [8cc	.
.	40D#	.	.	.
.	40AA	.	.	.
.	40BB-X	.	.	.
.	40DD#XJJJ	.	.	.
=109	=109	=109	=109	=109
4r	40AAALLL	.	8eL] 8g] 8cc]	.
.	40DD#X	.	.	.
.	40BB-X	.	.	.
.	40FF#X	.	.	.
.	40CJJJ	.	.	.
.	[8d-X	.	8f#XJ 8a 8dd-X	.
=110	=110	=110	=110	=110
*	*^	*	*	*
4r	8rEE	16d-KL]	.	16gKL 16b-X 16ee-X	.
.	.	32r	.	32r	.
.	.	32B#XJkk	.	[32enJkk 32g##X 32b#X 32een	.
.	48A#LLL	[8A#X	.	8e_ [8a#X [8cc#X [8ff#X	.
.	48E	.	.	.	.
.	48GG##X	.	.	.	.
.	48DD#X	.	.	.	.
.	48EE	.	.	.	.
.	48GGG##XJJJ	.	.	.	.
=111	=111	=111	=111	=111	=111
4r	40DDD#XLLL	8A#L]	.	8eL] 8a#] 8cc#] 8ff#]	.
.	40GGG##X	.	.	.	.
.	40EE	.	.	.	.
.	40BBB#X	.	.	.	.
.	40FF#XJJJ	.	.	.	.
.	8rEE	8AnJ	.	[8gJ 8b#X 8dd#X 8gg	.
=112	=112	=112	=112	=112	=112
4r	16rEE	16GKL	.	16gKL] 16cc#X 16ee 16aa	.
.	32rEE	32r	.	32r	.
.	[8qAAA [8qDD#X	.	.	.	.
.	32AAA_ 32DD#_	32F#XJkk 32f#X	.	[32b-XJkk 32dd#X 32ff#X 32bb-X	.
.	8AAA_ 8DD#_	[8E [8e	.	8b-_ [8ee [8gg [8cccn	.
=113	=113	=113	=113	=113	=113
4r	4AAA_ 4DD#_	4E_ 4e_	.	4b-_ 4ee_ 4gg_ 4ccc_	.
=114	=114	=114	=114	=114	=114
4r	8AAA] 8DD#]	8E] 8e]	.	8b-] 8ee] 8gg] 8ccc]	.
.	8AAA 8DD#X 8BB-X	8E 8e	.	8r	.
=115	=115	=115	=115	=115	=115
4r	8AAAL 8DD#X 8BB-X	8EL 8e	.	4r	.
.	8AAAJ 8DD# 8BB-	8EJ 8e	.	.	.
=116	=116	=116	=116	=116	=116
4r	16AAAKL 16DD#X 16BB-X	16EKL 16e	.	16.r	.
.	32r	32r	.	.	.
.	[8qAAA [8qDD#	.	.	.	.
.	32AAAJkk_ 32DD#_	32F#XJkk 32f#X	.	[32b-X 32dd#X 32ff#X 32bb-X	.
.	8AAA_ 8DD#_	[8E [8e	.	8b-_ [8ee [8gg [8ccc	.
=117	=117	=117	=117	=117	=117
4r	4AAA_ 4DD#_	4E_ 4e_	.	4b-_ 4ee_ 4gg_ 4ccc_	.
=118	=118	=118	=118	=118	=118
4r	8AAA] 8DD#]	8E] 8e]	.	8b-] 8ee] 8gg] 8ccc]	.
.	8AAA 8DD#X 8BB-X	8E 8e	.	8r	.
=119	=119	=119	=119	=119	=119
4r	8AAAL 8DD#X 8BB-X	8EL 8e	.	4r	.
.	8AAAJ 8DD# 8BB-	8EJ 8e	.	.	.
=120	=120	=120	=120	=120	=120
4r	16AAAKL 16DD#X 16BB-X	16EKL 16e	.	16.r	.
.	32r	32r	.	.	.
.	[8qFFF#X [8qCC [8qGG [8qD-X	.	.	.	.
.	32FFF#Jkk_ 32CC_ 32GG_ 32D-_	32AJkk 32a	.	[32dd-X 32ff#X 32aa 32ddd-X	.
.	8FFF#_ 8CC_ 8GG_ 8D-_	[8G [8g	.	8dd-_ [8gg [8bb-X [8eee-X	.
=121	=121	=121	=121	=121	=121
4r	4FFF#_ 4CC_ 4GG_ 4D-_	4G_ 4g_	.	4dd-_ 4gg_ 4bb-_ 4eee-_	.
=122	=122	=122	=122	=122	=122
4r	4FFF#_ 4CC_ 4GG_ 4D-_	4G_ 4g_	.	4dd-_ 4gg_ 4bb-_ 4eee-_	.
=123	=123	=123	=123	=123	=123
4r	4FFF#] 4CC] 4GG] 4D-]	4G] 4g]	.	4dd-] 4gg] 4bb-] 4eee-]	.
*	*v	*v	*	*	*
=124	=124	=124	=124	=124
*M3/4	*M3/4	*	*M3/4	*
*	*^	*	*^	*
*	*	*	*	*	*^	*
2.r	4BBB#X 4FF#	16FF#XLL	.	4r	4rc	24ELL	.
.	.	.	.	.	.	24A#XJ 24f#X	.
.	.	16GG	.	.	.	.	.
.	.	.	.	.	.	24r	.
.	.	16AA#X	.	.	.	24eL	.
.	.	.	.	.	.	24B#X	.
.	.	16BB#XJJ	.	.	.	.	.
.	.	.	.	.	.	24A#JJ	.
.	4rEE	20D#XLL	.	4r	4rc	8F#X	.
.	.	20FF#	.	.	.	.	.
.	.	20GG	.	.	.	.	.
.	.	.	.	.	.	8raa	.
.	.	20AA#	.	.	.	.	.
.	.	20BB#JJ	.	.	.	.	.
*	*	*	*	*clefF4	*	*	*
.	4rEE	20D#LL	.	10r	10.rEE	20rc	.
.	.	[20CCJ [20FF#X	.	.	.	20CLL	.
.	.	10.CCJ_ 10.FF#_	.	[10.D-	.	20D-X	.
.	.	.	.	.	[10E	20E	.
.	.	.	.	.	.	20F#JJ	.
*	*v	*v	*	*	*	*	*
=125	=125	=125	=125	=125	=125	=125
2.r	2.CC] 2.FF#]	.	2.D-]	2.E]	2.An	.
*	*	*	*	*v	*v	*
*	*	*	*v	*v	*
*	*	*	*clefG2	*
=126	=126	=126	=126	=126
2.r	8BBB#X 8FF#X 8E	.	40F#XLLL	.
.	.	.	40G	.
.	.	.	40A#X	.
.	.	.	40B#X	.
.	.	.	40d#XJJJ	.
.	8r	.	8r	.
.	8r	.	40cLLL	.
.	.	.	40d-X	.
.	.	.	40e	.
.	.	.	40f#X	.
.	.	.	40anJJJ	.
.	8FF# 8E 8A#X	.	8r	.
.	4r	.	40f#LLL	.
.	.	.	40g	.
.	.	.	40a#X	.
.	.	.	40b#X	.
.	.	.	40dd#XJJJ	.
.	.	.	8r	.
=127	=127	=127	=127	=127
2.r	8C 8B-X 8e	.	40ccLLL	.
.	.	.	40dd-X	.
.	.	.	40ee	.
.	.	.	40ff#X	.
.	.	.	40aaJJJ	.
.	8r	.	8r	.
.	8r	.	40ff#LLL	.
.	.	.	40gg	.
.	.	.	40aa#X	.
.	.	.	40bb#X	.
.	.	.	40ddd#XJJJ	.
.	8F#X 8e 8b-X	.	8r	.
.	4r	.	40cccLLL	.
.	.	.	40ddd-X	.
.	.	.	40eee	.
.	.	.	40fff#X	.
.	.	.	40aaanJJJ	.
.	.	.	8r	.
=128	=128	=128	=128	=128
*	*^	*	*^	*
*	*	*	*	*	*^	*
2.r	4CCn 4EE#X	16BBLL	.	4r	4rc	24ALL	.
.	.	.	.	.	.	24d#XJ 24b	.
.	.	16C	.	.	.	.	.
.	.	.	.	.	.	24r	.
.	.	16D#X	.	.	.	24aL	.
.	.	.	.	.	.	24e#X	.
.	.	16E#XJJ	.	.	.	.	.
.	.	.	.	.	.	24d#JJ	.
.	4rEE	20G#XLL	.	4r	4rc	8B	.
.	.	20BB	.	.	.	.	.
.	.	20C	.	.	.	.	.
.	.	.	.	.	.	8raa	.
.	.	20D#	.	.	.	.	.
.	.	20E#JJ	.	.	.	.	.
*	*	*	*	*clefF4	*	*	*
.	20rEE	20G#LL	.	10r	10.rEE	20rc	.
.	[20CC [20FFn	[20E-XJ	.	.	.	20FnLL	.
.	10.CC_ 10.FF_	10.E-J_	.	[10.G-	.	20G-X	.
.	.	.	.	.	[10A	20A	.
.	.	.	.	.	.	20BJJ	.
=129	=129	=129	=129	=129	=129	=129	=129
2.r	2.CC] 2.FF]	2.E-]	.	2.G-]	2.A]	2.d	.
*	*v	*v	*	*	*	*	*
*	*	*	*	*v	*v	*
*	*	*	*v	*v	*
*	*	*	*clefG2	*
=130	=130	=130	=130	=130
2.r	8CC 8EE#X 8D#X 8A	.	40BLLL	.
.	.	.	40c	.
.	.	.	40d#X	.
.	.	.	40e#X	.
.	.	.	40g#XJJJ	.
.	8r	.	8r	.
.	8r	.	40fLLL	.
.	.	.	40g-X	.
.	.	.	40a	.
.	.	.	40b	.
.	.	.	40ddnJJJ	.
.	8BB 8A 8d#X	.	8r	.
.	4r	.	40bLLL	.
.	.	.	40cc	.
.	.	.	40dd#X	.
.	.	.	40ee#X	.
.	.	.	40gg#XJJJ	.
.	.	.	8r	.
=131	=131	=131	=131	=131
*	*^	*	*	*
2.r	4rEE	8F 8e-X 8a	.	40ffLLL	.
.	.	.	.	40gg-X	.
.	.	.	.	40aa	.
.	.	.	.	40bb	.
.	.	.	.	40dddnJJJ	.
.	.	8rc	.	8r	.
.	8rEE	8rc	.	40bbLLL	.
.	.	.	.	40ccc	.
.	.	.	.	40ddd#X	.
.	.	.	.	40eee#X	.
.	.	.	.	40ggg#XJJJ	.
*	*clefG2	*	*	*	*
.	8G-X	8B 8a 8ee-X	.	8r	.
.	8FL	4raa	.	40fffLLL	.
.	.	.	.	40ggg-X	.
.	.	.	.	40aaa	.
.	.	.	.	40bbb	.
.	.	.	.	40ddddnJJJ	.
.	8DJ	.	.	8r	.
*	*clefF4	*	*	*	*
=132	=132	=132	=132	=132	=132
2.r	2E-X	2rc	.	4r	.
.	.	.	.	[8qA	.
.	.	.	.	2A_ [2f	.
.	4FF	4rc	.	.	.
=133	=133	=133	=133	=133	=133
2.r	4CC	4rc	.	8A] 8f]	.
.	.	.	.	4g-X	.
.	4rEE	4d	.	.	.
.	.	.	.	4a	.
.	4rEE	4G-X	.	.	.
.	.	.	.	8b	.
*	*v	*v	*	*	*
=134	=134	=134	=134	=134
*M5/8	*M5/8	*	*M5/8	*
3...r	3...r	.	8r	.
.	.	.	8fL	.
.	.	.	8g-X	.
.	.	.	8a	.
.	.	.	8bJ	.
=135	=135	=135	=135	=135
*M3/4	*M3/4	*	*M3/4	*
*	*	*	*^	*
2.r	4EE-X 4BB-- 4G-X	.	4d 4g-X	[2.dd	.
.	[8qEE- 8qAA-X [8qG-	.	.	.	.
.	2EE-] 2BB-- 2G-]	.	4rc	.	.
.	.	.	4g-	.	.
=136	=136	=136	=136	=136	=136
.	[8qEE-X 8qAA-X [8qG-X	.	[8qd	.	.
2.r	2EE-] 2BB-- 2G-]	.	2d]	2dd]	.
.	[8qEE- 8qAA- [8qG-	.	[8qd-X	.	.
.	4EE-] 4BB-- 4G-]	.	4d-]	4raa	.
*	*	*	*v	*v	*
=137	=137	=137	=137	=137
*	*^	*	*	*
2.r	16AA-XLL 16G-X	4rc	.	16cLL	.
.	16EE-XJJ	.	.	16ddnJJ	.
.	8rEE	.	.	8r	.
.	4rEE	2G-X 2g-X	.	12r	.
.	.	.	.	24r	.
.	.	.	.	24ccLL	.
.	.	.	.	24a-X	.
.	.	.	.	24g-XJJ	.
.	4EE- 4BB-- 4G-	.	.	6d	.
.	.	.	.	12d-X	.
=138	=138	=138	=138	=138	=138
2.r	8EE-X 8AA-X 8G-X	4rc	.	16cLL	.
.	.	.	.	16ddnJJ	.
.	8rEE	.	.	8r	.
.	4rEE	2G-X 2g-X	.	12r	.
.	.	.	.	24r	.
.	.	.	.	24ccLL	.
.	.	.	.	24a-X	.
.	.	.	.	24g-XJJ	.
.	4EE- 4BB-- 4G-	.	.	6d	.
.	.	.	.	12d-X	.
=139	=139	=139	=139	=139	=139
2.r	8EE-X 8AA-X 8G-X	4rc	.	24cLL	.
.	.	.	.	24ddnJ	.
.	.	.	.	24r	.
.	8rEE	.	.	24ccL	.
.	.	.	.	24a-X	.
.	.	.	.	24g-XJJ	.
.	4rEE	24G-LL	.	8d	.
.	.	24a-XJ	.	.	.
.	.	24r	.	.	.
.	.	24g-XL	.	8r	.
.	.	24d	.	.	.
.	.	24cJJ	.	.	.
.	4rEE	8A-X	.	24g-LL	.
.	.	.	.	24aa-XJ	.
.	.	.	.	24r	.
.	.	8rc	.	24gg-XL	.
.	.	.	.	24dd	.
.	.	.	.	24ccJJ	.
*	*v	*v	*	*	*
=140	=140	=140	=140	=140
*	*	*	*^	*
2.r	8EE-- 8AA-X 8G-X	.	24cLL	8a-X	.
.	.	.	24ddJ	.	.
.	.	.	24r	.	.
.	8r	.	24ccL	8raa	.
.	.	.	24a-X	.	.
.	.	.	24g-XJJ	.	.
.	4r	.	8d	24ccLL	.
.	.	.	.	24dddJ	.
.	.	.	.	24r	.
.	.	.	8rc	24cccL	.
.	.	.	.	24aa-X	.
.	.	.	.	24gg-XJJ	.
.	8r	.	8rc	8dd	.
.	8EE-- 8AA-	.	8G-X	8raa	.
=141	=141	=141	=141	=141	=141
*	*^	*	*	*^	*
2.r	4CC#X	16GGnLL	.	4r	4rc	24FLL	.
.	.	.	.	.	.	8qB	.
.	.	.	.	.	.	24gnJ	.
.	.	16AA-X	.	.	.	.	.
.	.	.	.	.	.	24r	.
.	.	16BB	.	.	.	24fL	.
.	.	.	.	.	.	24c#X	.
.	.	16C#XJJ	.	.	.	.	.
.	.	.	.	.	.	24BJJ	.
.	4rEE	20ELL	.	4r	4rc	4Gn	.
.	.	20GG	.	.	.	.	.
.	.	20AA-	.	.	.	.	.
.	.	20BB	.	.	.	.	.
.	.	20C#JJ	.	.	.	.	.
*	*	*	*	*clefF4	*	*	*
.	4rEE	20ELL	.	10r	10.rEE	20rc	.
.	.	[20DD-XJ [20GG	.	.	.	20D-XLL	.
.	.	10.DD-J_ 10.GG_	.	[10.E--	.	20E--	.
.	.	.	.	.	[10F	20F	.
.	.	.	.	.	.	20GJJ	.
*	*v	*v	*	*	*	*	*
=142	=142	=142	=142	=142	=142	=142
2.r	2.DD-] 2.GG]	.	2.E--]	2.F]	2.B-X	.
*	*	*	*	*v	*v	*
*	*	*	*v	*v	*
*	*	*	*clefG2	*
=143	=143	=143	=143	=143
2.r	8CC#X 8GG 8F	.	40GLLL	.
.	.	.	40A-X	.
.	.	.	40Bn	.
.	.	.	40c#X	.
.	.	.	40eJJJ	.
.	8r	.	8r	.
.	8r	.	40d-XLLL	.
.	.	.	40e--	.
.	.	.	40f	.
.	.	.	40g	.
.	.	.	40b-XJJJ	.
.	8GG 8F 8Bn	.	8r	.
.	4r	.	40gLLL	.
.	.	.	40a-X	.
.	.	.	40bn	.
.	.	.	40cc#X	.
.	.	.	40eenJJJ	.
.	.	.	8r	.
=144	=144	=144	=144	=144
2.r	8D-X 8c-X 8f	.	40dd-XLLL	.
.	.	.	40ee--	.
.	.	.	40ff	.
.	.	.	40gg	.
.	.	.	40bb-XJJJ	.
.	8r	.	8r	.
.	8r	.	40ggLLL	.
.	.	.	40aa-X	.
.	.	.	40bbn	.
.	.	.	40ccc#X	.
.	.	.	40eeenJJJ	.
.	8G 8f 8cc-X	.	8r	.
.	4r	.	40ddd-XLLL	.
.	.	.	40eee--	.
.	.	.	40fff	.
.	.	.	40ggg	.
.	.	.	40bbb-XJJJ	.
.	.	.	8r	.
=145	=145	=145	=145	=145
*	*^	*	*^	*
*	*	*	*	*	*^	*
2.r	4DD-X 4FF#X	16CnLL	.	4r	4rc	24B-XLL	.
.	.	.	.	.	.	24ccJ	.
.	.	16D-X	.	.	.	.	.
.	.	.	.	.	.	24r	.
.	.	16E	.	.	.	24b-XL	.
.	.	.	.	.	.	24f#X	.
.	.	16F#XJJ	.	.	.	.	.
.	.	.	.	.	.	24eJJ	.
.	4rEE	20ALL	.	4r	4rc	4c	.
.	.	20C	.	.	.	.	.
.	.	20D-	.	.	.	.	.
.	.	20E	.	.	.	.	.
.	.	20F#JJ	.	.	.	.	.
*	*	*	*	*clefF4	*	*	*
.	20rEE	20ALL	.	10r	10.rEE	20rc	.
.	[20DD- [20GG-X	[20F-XJ	.	.	.	20G-XLL	.
.	10.DD-_ 10.GG-_	10.F-J_	.	[10.A--	.	20A--	.
.	.	.	.	.	[10B-X	20B-	.
.	.	.	.	.	.	20cJJ	.
=146	=146	=146	=146	=146	=146	=146	=146
2.r	2.DD-] 2.GG-]	2.F-]	.	2.A--]	2.B-]	2.e-X	.
*	*v	*v	*	*	*	*	*
*	*	*	*	*v	*v	*
*	*	*	*v	*v	*
*	*	*	*clefG2	*
=147	=147	=147	=147	=147
2.r	8DD-X 8FF#X 8E 8B-X	.	40cLLL	.
.	.	.	40d-X	.
.	.	.	40e	.
.	.	.	40f#X	.
.	.	.	40aJJJ	.
.	8r	.	8r	.
.	8r	.	40g-XLLL	.
.	.	.	40a--	.
.	.	.	40b-X	.
.	.	.	40cc	.
.	.	.	40ee-XJJJ	.
.	8C 8B-X 8e	.	8r	.
.	4r	.	40ccLLL	.
.	.	.	40dd-X	.
.	.	.	40een	.
.	.	.	40ff#X	.
.	.	.	40aanJJJ	.
.	.	.	8r	.
*	*clefG2	*	*	*
=148	=148	=148	=148	=148
*	*^	*	*	*
2.r	4rc	8G-X 8f-X 8b-X	.	40gg-XLLL	.
.	.	.	.	40aa--	.
.	.	.	.	40bb-X	.
.	.	.	.	40ccc	.
.	.	.	.	40eee-XJJJ	.
.	.	8raa	.	8r	.
.	8rc	8raa	.	40cccLLL	.
.	.	.	.	40ddd-X	.
.	.	.	.	40eeen	.
.	.	.	.	40fff#X	.
.	.	.	.	40aaanJJJ	.
.	8A--	8c 8b- 8ff-X	.	8r	.
.	8G-L	4raa	.	40ggg-XLLL	.
.	.	.	.	40aaa--	.
.	.	.	.	40bbb-X	.
.	.	.	.	40cccc	.
.	.	.	.	40eeee-XJJJ	.
.	8E-XJ	.	.	8r	.
*	*clefF4	*	*	*	*
=149	=149	=149	=149	=149	=149
2.r	2En	2rc	.	4r	.
.	.	.	.	[8qA#X	.
.	.	.	.	2A#_ [2f#X	.
.	4FF#X	4rc	.	.	.
=150	=150	=150	=150	=150	=150
2.r	4CC#X	4rc	.	8A#] 8f#]	.
.	.	.	.	4g	.
.	4rEE	4d#X	.	.	.
.	.	.	.	4a#X	.
.	4rEE	4G	.	.	.
.	.	.	.	8b#X	.
*	*v	*v	*	*	*
=151	=151	=151	=151	=151
*M5/8	*M5/8	*	*M5/8	*
3...r	3...r	.	8r	.
.	.	.	8f#XL	.
.	.	.	8g	.
.	.	.	8a#X	.
.	.	.	8b#XJ	.
=152	=152	=152	=152	=152
*M3/4	*M3/4	*	*M3/4	*
*	*	*	*^	*
2.r	4EE 4BB-X 4G	.	4d#X 4g	[2.dd#X	.
.	[8qEE 8qAA [8qG	.	.	.	.
.	2EE] 2BB- 2G]	.	4rc	.	.
.	.	.	4g	.	.
=153	=153	=153	=153	=153	=153
.	[8qEE 8qAA [8qG	.	[8qd#X	.	.
2.r	2EE] 2BB-X 2G]	.	2d#]	2dd#]	.
.	[8qEE 8qAA [8qG	.	[8qdn	.	.
.	4EE] 4BB- 4G]	.	4d]	4raa	.
*	*	*	*v	*v	*
=154	=154	=154	=154	=154
*	*^	*	*	*
2.r	8EE 8AA 8G	4rc	.	16c#XLL	.
.	.	.	.	16dd#XJJ	.
.	8rEE	.	.	8r	.
.	4rEE	16GKL 16g	.	12r	.
.	.	8.GJ 8.g	.	.	.
.	.	.	.	24r	.
.	.	.	.	24cc#XLL	.
.	.	.	.	24a	.
.	.	.	.	24gJJ	.
.	4EE 4BB-X 4G	4rc	.	6d#X	.
.	.	.	.	12dn	.
=155	=155	=155	=155	=155	=155
2.r	8EE 8AA 8G	4rc	.	16c#XLL	.
.	.	.	.	16dd#XJJ	.
.	8rEE	.	.	8r	.
.	4rEE	16GKL 16g	.	12r	.
.	.	8.GJ 8.g	.	.	.
.	.	.	.	24r	.
.	.	.	.	24cc#XLL	.
.	.	.	.	24a	.
.	.	.	.	24gJJ	.
.	4EE 4BB-X 4G	4rc	.	6d#X	.
.	.	.	.	12dn	.
=156	=156	=156	=156	=156	=156
2.r	8EE 8AA 8G	4rc	.	24c#XLL	.
.	.	.	.	24dd#XJ	.
.	.	.	.	24r	.
.	8rEE	.	.	24cc#XL	.
.	.	.	.	24a	.
.	.	.	.	24gJJ	.
.	4rEE	24GLL	.	8d#X	.
.	.	24aJ	.	.	.
.	.	24r	.	.	.
.	.	24gL	.	8r	.
.	.	24d#X	.	.	.
.	.	24c#XJJ	.	.	.
.	4rEE	8A	.	24gLL	.
.	.	.	.	24aaJ	.
.	.	.	.	24r	.
.	.	8rc	.	24ggL	.
.	.	.	.	24dd#	.
.	.	.	.	24cc#JJ	.
*	*v	*v	*	*	*
=157	=157	=157	=157	=157
*	*	*	*^	*
2.r	8EE-X 8AA 8G	.	24c#XLL	8a	.
.	.	.	24dd#XJ	.	.
.	.	.	24r	.	.
.	8r	.	24cc#XL	8raa	.
.	.	.	24a	.	.
.	.	.	24gJJ	.	.
.	8r	.	8d#X	24cc#XLL	.
.	.	.	.	24ddd#XJ	.
.	.	.	.	24r	.
.	8G	.	8rc	24ccc#XL	.
.	.	.	.	24aa	.
.	.	.	.	24ggJJ	.
.	8F#XL	.	4rc	8dd#X	.
.	8D#XJ	.	.	8raa	.
=158	=158	=158	=158	=158	=158
*	*^	*	*	*	*
2.r	4rEE	12GL	.	4rc	24raa	.
.	.	.	.	.	24ALL	.
.	.	12AA	.	.	24B-X	.
.	.	.	.	.	24c#X	.
.	.	12EEnJ	.	.	24d#X	.
.	.	.	.	.	24f#XJJ	.
.	12rEE	12rc	.	[2a	4raa	.
.	6EE	12EEL	.	.	.	.
.	.	12AAJ	.	.	.	.
.	4rEE	12GL	.	.	12raa	.
.	.	12AA	.	.	24b-X	.
.	.	.	.	.	24cc#XLL	.
.	.	12GJ	.	.	24dd#X	.
.	.	.	.	.	24ff#XJJ	.
=159	=159	=159	=159	=159	=159	=159
2.r	12c#XL	4rc	.	8a]	2.ryy	.
.	12G	.	.	.	.	.
.	.	.	.	4b-X	.	.
.	12c#J	.	.	.	.	.
.	12f#L	4f#X	.	.	.	.
.	12c#	.	.	.	.	.
.	.	.	.	4cc#X	.	.
.	12GJ	.	.	.	.	.
.	12B-L	4B-X	.	.	.	.
.	12f#	.	.	.	.	.
.	.	.	.	8dd#X	.	.
.	12GJ	.	.	.	.	.
=160	=160	=160	=160	=160	=160	=160
.	.	.	.	.	16qf#XLL	.
.	.	.	.	.	16qb-XJJ	.
2.r	12B-L	4B-X	.	24rc	[2.ff#X	.
.	.	.	.	24ALL	.	.
.	12C#X	.	.	24B-X	.	.
.	.	.	.	24c#X	.	.
.	12GGJ	.	.	24d#X	.	.
.	.	.	.	24f#JJ	.	.
.	12rEE	12rc	.	4rc	.	.
.	6GG	12GGL	.	.	.	.
.	.	12C#J	.	.	.	.
.	4rEE	12B-L	.	24rc	.	.
.	.	.	.	24aLL	.	.
.	.	12C#	.	24b-	.	.
.	.	.	.	24cc#X	.	.
.	.	12B-J	.	24dd#X	.	.
.	.	.	.	24ff#JJ	.	.
*	*v	*v	*	*	*	*
=161	=161	=161	=161	=161	=161
2.r	12c#XL	.	12rc	2.ff#]	.
.	12B-X	.	12rc	.	.
.	12c#J	.	12b-X	.	.
.	12f#XL	.	[4f#X	.	.
.	12c#	.	.	.	.
.	12B-J	.	.	.	.
.	12c#L	.	6f#]	.	.
.	12B-	.	.	.	.
.	12C#XJ	.	12fn	.	.
=162	=162	=162	=162	=162	=162
*	*^	*	*	*	*
2.r	12A#XL	4rc	.	4e	2dd#X	.
.	12E	.	.	.	.	.
.	12FF#XJ	.	.	.	.	.
.	.	16qG#XLL	.	.	.	.
.	.	16qg#X	.	.	.	.
.	.	16qe	.	.	.	.
.	.	16qA#JJ	.	.	.	.
.	4rEE	2G#	.	4rc	.	.
.	12EL	.	.	4rc	[4ddn	.
.	12FF#	.	.	.	.	.
.	12EJ	.	.	.	.	.
*	*	*	*	*v	*v	*
=163	=163	=163	=163	=163	=163
2.r	12A#L	4r	.	4e 4dd]	.
.	12E	.	.	.	.
.	12FF#J	.	.	.	.
.	.	16qG#LL	.	.	.
.	.	16qg#	.	.	.
.	.	16qe	.	.	.
.	.	16qA#JJ	.	.	.
*	*	*	*	*tremolo	*
.	4r	4G#	.	32cc#LLL	.
.	.	.	.	32dd 32dd#	.
.	.	.	.	32cc#	.
.	.	.	.	32dd 32dd#	.
.	.	.	.	32cc#	.
.	.	.	.	32dd 32dd#	.
.	.	.	.	32cc#	.
.	.	.	.	32ddJJJ 32dd#	.
.	12GL	4Gn	.	32cc#LLL	.
.	.	.	.	32dd 32dd#	.
.	.	.	.	32cc#	.
.	12E	.	.	.	.
.	.	.	.	32ddJJJ 32dd#	.
*	*	*	*	*Xtremolo	*
.	.	.	.	8b#	.
.	12FF#J	.	.	.	.
=164	=164	=164	=164	=164	=164
.	.	.	.	8qe	.
2.r	12G#L	4G#X	.	4ee	.
.	12Dn	.	.	.	.
.	12FF#XJ	.	.	.	.
.	4rEE	4rc	.	4bn	.
.	.	.	.	8qdd#X 8qaa#X	.
.	4rEE	12rc	.	36ddd#XLL	.
.	.	.	.	36eee	.
.	.	.	.	[36ddd#JJ	.
.	.	12FF#L	.	6ddd#]	.
.	.	12EJ	.	.	.
*	*v	*v	*	*	*
=165	=165	=165	=165	=165
.	.	.	8qddn 8qaa#	.
2.r	12A#XL	.	36dddnLL	.
.	.	.	36eee	.
.	.	.	[36dddJJ	.
.	12E	.	6ddd]	.
.	12A#J	.	.	.
*	*clefG2	*	*	*
.	16qg#XLL	.	.	.
.	16qgg#X	.	.	.
.	16qee	.	8qcc# 8qaa#	.
.	16qa#XJJ	.	.	.
*	*	*	*tremolo	*
.	4g#	.	32ccc#LLL	.
.	.	.	32dddn 32ddd#	.
.	.	.	32ccc#	.
.	.	.	32dddn 32ddd#	.
.	.	.	32ccc#	.
.	.	.	32dddn 32ddd#	.
.	.	.	32ccc#	.
.	.	.	32dddnJJJ 32ddd#	.
.	4gn	.	32ccc#LLL	.
.	.	.	32dddn 32ddd#	.
.	.	.	32ccc#	.
.	.	.	32dddnJJJ 32ddd#	.
*	*	*	*Xtremolo	*
.	.	.	8bb#	.
*	*clefF4	*	*	*
=166	=166	=166	=166	=166
.	.	.	16qccnLL	.
.	.	.	16qff#X	.
.	.	.	16qbbnJJ	.
*	*^	*	*	*
2.r	12f#L	4f#X	.	4eee	.
.	12G#X	.	.	.	.
.	12DJ	.	.	.	.
.	12rEE	8rc	.	4bb	.
.	12FF#XL	.	.	.	.
.	.	8c	.	.	.
.	12DJ	.	.	.	.
.	12G#L	6B	.	4r	.
.	12D	.	.	.	.
.	12G#J	12G#	.	.	.
=167	=167	=167	=167	=167	=167
2.r	12cL	8c	.	2.r	.
.	12G#X	.	.	.	.
.	.	8rc	.	.	.
.	12cJ	.	.	.	.
.	12f#XL	12rc	.	.	.
.	12c	6c	.	.	.
.	12G#J	.	.	.	.
.	12BL	6B	.	.	.
.	12D	.	.	.	.
.	12FF#XJ	12G#	.	.	.
=168	=168	=168	=168	=168	=168
*	*	*	*	*^	*
2.r	4A	12AL	.	4rc	18.raa	.
.	.	12BB	.	.	36raa	.
.	.	.	.	.	36BLL	.
.	.	.	.	.	36c	.
.	.	12FF#XJ	.	.	36d#X	.
.	.	.	.	.	36e#X	.
.	.	.	.	.	36g#XJJ	.
.	12rEE	12rc	.	[2b	4raa	.
.	6FF#	12FF#L	.	.	.	.
.	.	12BBJ	.	.	.	.
.	4rEE	12AL	.	.	18.raa	.
.	.	12BB	.	.	18raa	.
.	.	.	.	.	36cc	.
.	.	12AJ	.	.	36dd#XLL	.
.	.	.	.	.	36ee#X	.
.	.	.	.	.	36gg#XJJ	.
=169	=169	=169	=169	=169	=169	=169
2.r	12d#XL	4rc	.	8b]	2.ryy	.
.	12A	.	.	.	.	.
.	.	.	.	4cc	.	.
.	12d#J	.	.	.	.	.
.	12g#L	4g#X	.	.	.	.
.	12d#	.	.	.	.	.
.	.	.	.	4dd#X	.	.
.	12AJ	.	.	.	.	.
.	12cL	4c	.	.	.	.
.	12g#	.	.	.	.	.
.	.	.	.	8ee#X	.	.
.	12AJ	.	.	.	.	.
=170	=170	=170	=170	=170	=170	=170
2.r	12cL	4c	.	18.rc	[2.gg#X	.
.	12D#X	.	.	36rc	.	.
.	.	.	.	36BLL	.	.
.	.	.	.	36c	.	.
.	12AAJ	.	.	36d#X	.	.
.	.	.	.	36e#X	.	.
.	.	.	.	36g#XJJ	.	.
.	12rEE	12rc	.	4rc	.	.
.	6AA	12AAL	.	.	.	.
.	.	12D#J	.	.	.	.
.	4rEE	12cL	.	18.rc	.	.
.	.	12D#	.	36rc	.	.
.	.	.	.	36bLL	.	.
.	.	.	.	36cc	.	.
.	.	12cJ	.	36dd#X	.	.
.	.	.	.	36ee#X	.	.
.	.	.	.	36gg#JJ	.	.
*	*v	*v	*	*	*	*
*	*	*	*v	*v	*
=171	=171	=171	=171	=171
2.r	12g#XL	.	6gg#]	.
.	12c	.	.	.
.	12D#XJ	.	12cc	.
.	4r	.	12cL 12g#X	.
.	.	.	12d#X 12gn	.
.	.	.	12cJ 12g#X	.
.	12DD#XL	.	12d#L 12gn	.
.	12AAAJ	.	12c 12g#X	.
.	12r	.	12d#J 12gn	.
=172	=172	=172	=172	=172
*	*^	*	*^	*
2.r	4rEE	12cL	.	4rc	18.raa	.
.	.	12Dn	.	.	36raa	.
.	.	.	.	.	36dnLL	.
.	.	.	.	.	36e-X	.
.	.	12AAJ	.	.	36f#X	.
.	.	.	.	.	36g#X	.
.	.	.	.	.	36bJJ	.
.	12rEE	12rc	.	[2dd	4rccc	.
.	6AA	12AAL	.	.	.	.
.	.	12DJ	.	.	.	.
.	4rEE	12cL	.	.	18.raa	.
.	.	12D	.	.	36raa	.
.	.	.	.	.	36ddLL	.
.	.	.	.	.	36ee-X	.
.	.	12cJ	.	.	36ff#X	.
.	.	.	.	.	36gg#X	.
.	.	.	.	.	36bbJJ	.
=173	=173	=173	=173	=173	=173	=173
2.r	12f#XL	4rc	.	8dd]	2.ryy	.
.	12c	.	.	.	.	.
.	.	.	.	4ee-X	.	.
.	12f#J	.	.	.	.	.
.	12bL	4b	.	.	.	.
.	12f#	.	.	.	.	.
.	.	.	.	4ff#X	.	.
.	12cJ	.	.	.	.	.
.	12e-L	4e-X	.	.	.	.
.	12b	.	.	.	.	.
.	.	.	.	8gg#X	.	.
.	12cJ	.	.	.	.	.
=174	=174	=174	=174	=174	=174	=174
2.r	12e-L	4e-X	.	18.rc	[2.bb	.
.	12F#X	.	.	36rc	.	.
.	.	.	.	36dLL	.	.
.	.	.	.	36e-X	.	.
.	12CJ	.	.	36f#X	.	.
.	.	.	.	36g#X	.	.
.	.	.	.	36bJJ	.	.
.	12rEE	4rc	.	4rc	.	.
.	12CL	.	.	.	.	.
.	12F#J	.	.	.	.	.
.	12e-L	4rc	.	18.rc	.	.
.	12F#	.	.	36rc	.	.
.	.	.	.	36ddLL	.	.
.	.	.	.	36ee-X	.	.
.	12e-J	.	.	36ff#X	.	.
.	.	.	.	36gg#X	.	.
.	.	.	.	36bbJJ	.	.
*	*v	*v	*	*	*	*
*	*	*	*v	*v	*
=175	=175	=175	=175	=175
2.r	12bL	.	6bb]	.
.	12e-X	.	.	.
.	12F#XJ	.	12ee-X	.
.	4r	.	12e-XL 12b	.
.	.	.	12f#X 12b-X	.
.	.	.	12e-J 12bn	.
.	12FF#XL	.	12f#L 12b-X	.
.	12CCJ	.	12e- 12bn	.
.	12r	.	12f#J 12b-X	.
=176	=176	=176	=176	=176
2.r	12e-XL	.	16aLL	.
.	.	.	16dddJJ	.
.	12Fn	.	.	.
.	.	.	8r	.
.	12CJ	.	.	.
.	12FL	.	12r	.
.	12e-J	.	24r	.
.	.	.	24cccLL	.
.	12r	.	24aa-X	.
.	.	.	24gg-XJJ	.
.	4E-X 4An 4g-X	.	4dd	.
=177	=177	=177	=177	=177
.	.	.	16qfLL	.
.	.	.	16qg-X	.
.	.	.	16qan	.
.	.	.	16qbJJ	.
2.r	12AL	.	12g-L 12dd	.
.	12E-XJ	.	12a 12dd-X	.
.	12r	.	12g-J 12ddn	.
.	12AAL	.	12aL 12dd-X	.
.	12EE-XJ	.	12g- 12ddn	.
.	12r	.	12aJ 12dd-X	.
.	12AL	.	12g- 12ddn	.
.	12E-J	.	12r	.
.	12r	.	12a 12dd-X	.
=178	=178	=178	=178	=178
2.r	12g-XL	.	16ccLL	.
.	.	.	16fffJJ	.
.	12A-X	.	.	.
.	.	.	8r	.
.	12E-XJ	.	.	.
.	12A-L	.	12r	.
.	12g-J	.	24r	.
.	.	.	24eee-XLL	.
.	12r	.	24ccc-X	.
.	.	.	24bb--JJ	.
.	4G-X 4cn 4b--	.	4ff	.
=179	=179	=179	=179	=179
.	.	.	16qa-XLL	.
.	.	.	16qb--	.
.	.	.	16qccn	.
.	.	.	16qddJJ	.
2.r	12cL	.	12b--L 12ff	.
.	12G-XJ	.	12cc 12ff-X	.
.	12r	.	12b--J 12ffn	.
.	12CL	.	12ccL 12ff-X	.
.	12GG-XJ	.	12b-- 12ffn	.
.	12r	.	12ccJ 12ff-X	.
.	8r	.	12b--L 12ffn	.
.	.	.	12cc 12ff-X	.
.	16DDLL 16D	.	.	.
.	.	.	12b--J 12ffn	.
.	16AAAnJJ 16AAn	.	.	.
=180	=180	=180	=180	=180
*	*	*	*^	*
2.r	16F#XLL 16c	.	12f#XL 12cc	6ff#X	.
.	16F# 16c	.	.	.	.
.	.	.	12f# 12cc	.	.
.	16DD 16D	.	.	.	.
.	.	.	12g#XJ 12cc	[12gg#X	.
.	16GGG#XJJ 16GG#X	.	.	.	.
.	16F#LL 16c 16f#X	.	12g#L 12cc	6gg#]	.
.	16F# 16c 16f#	.	.	.	.
.	.	.	12g# 12cc	.	.
.	16F# 16c 16f#	.	.	.	.
.	.	.	12aJ 12cc	12aa	.
.	16F#JJ 16c 16f#	.	.	.	.
.	16F#LL 16c 16f#	.	4rc	12bnL 12ff# 12bbn	.
.	16F# 16c 16f#	.	.	.	.
.	.	.	.	12cc 12ff# 12ccc	.
.	16GGG# 16GG#	.	.	.	.
.	.	.	.	12ddJ 12ff# 12ddd	.
.	16DDDJJ 16DD	.	.	.	.
=181	=181	=181	=181	=181	=181
2.r	16F#XLL 16c 16f#X	.	4rc	12ffnL 12aa 12fffn	.
.	16F# 16c 16f#	.	.	.	.
.	.	.	.	12ee 12aa 12eee	.
.	16F# 16c 16f#	.	.	.	.
.	.	.	.	12ee-XJ 12aa 12eee-X	.
.	16F#JJ 16c 16f#	.	.	.	.
.	16F#LL 16c 16f#	.	12bL 12ee-	[4bb	.
.	16F# 16c 16f#	.	.	.	.
.	.	.	12b 12ee-	.	.
.	16F# 16c 16f#	.	.	.	.
.	.	.	12bJ 12ee-	.	.
.	16F#JJ 16c 16f#	.	.	.	.
.	16F#LL 16c 16f#	.	4rc	12bL 12ee- 12bb]	.
.	16F# 16c 16f#	.	.	.	.
.	.	.	.	12b-X 12ee- 12bb-X	.
.	16F# 16c 16f#	.	.	.	.
.	.	.	.	12aJ 12ee- 12aa	.
.	16F#JJ 16c 16f#	.	.	.	.
=182	=182	=182	=182	=182	=182
*	*^	*	*	*	*
2.r	4AA	16AAKL	.	4F#X 4c	8fnL	.
.	.	8DD	.	.	.	.
.	.	.	.	.	8eJ	.
.	.	16DDJk	.	.	.	.
.	.	8qGG#X	.	.	.	.
.	4AA	16AAKL	.	2F# 2Bn	8e-XL	.
.	.	8DD	.	.	.	.
.	.	.	.	.	[8dJ	.
.	.	16DDJk	.	.	.	.
.	4GG#	16GG#KL	.	.	12dL]	.
.	.	8DD	.	.	.	.
.	.	.	.	.	12fn	.
.	.	.	.	.	12g#XJ	.
.	.	[16DDJk	.	.	.	.
=183	=183	=183	=183	=183	=183	=183
2.r	4rEE	12DDL] 12GGn 12Fn 12B 12f	.	4rc	[2b	.
.	.	24DDL	.	.	.	.
.	.	24GG#X	.	.	.	.
.	.	24F#X	.	.	.	.
.	.	24cJJ	.	.	.	.
.	4rEE	16E-XKL 16e-X	.	4f#X	.	.
.	.	8.E-J 8.e-	.	.	.	.
.	4rEE	8f#XL	.	12rc	12b]	.
.	.	.	.	12fnL 12cc	6ffn	.
.	.	16DDL 16D	.	.	.	.
.	.	.	.	12fJ 12cc	.	.
.	.	16AAAJJ 16AA	.	.	.	.
=184	=184	=184	=184	=184	=184	=184
2.r	16F#XLL 16c	4En 4en	.	12f#XL 12cc	6ff#X	.
.	16F# 16c	.	.	.	.	.
.	.	.	.	12f# 12cc	.	.
.	16DD 16D	.	.	.	.	.
.	.	.	.	12g#XJ 12cc	[12gg#X	.
.	16GGG#XJJ 16GG#X	.	.	.	.	.
.	16F#LL 16c	4E 4e	.	12g#L 12cc	6gg#]	.
.	16F# 16c	.	.	.	.	.
.	.	.	.	12g# 12cc	.	.
.	16F# 16c	.	.	.	.	.
.	.	.	.	12aJ 12cc	12aa	.
.	16F#JJ 16c	.	.	.	.	.
.	16F#LL 16c	4E-X 4e-X	.	4rc	12bL 12ff# 12bb	.
.	16F# 16c	.	.	.	.	.
.	.	.	.	.	12cc 12ff# 12ccc	.
.	16GGG# 16GG#	.	.	.	.	.
.	.	.	.	.	12ddJ 12ff# 12ddd	.
.	16DDDJJ 16DD	.	.	.	.	.
=185	=185	=185	=185	=185	=185	=185
2.r	16rEE	2.c 2.cc	.	4rc	12ffnL 12aa 12fffn	.
.	16F#XLL 16c 16f#X	.	.	.	.	.
.	.	.	.	.	12ee 12aa 12eee	.
.	16F# 16c 16f#	.	.	.	.	.
.	.	.	.	.	12ee-XJ 12aa 12eee-X	.
.	16F#JJ 16c 16f#	.	.	.	.	.
.	16F#LL 16c 16f#	.	.	12bL 12ee-	[4bb	.
.	16F# 16c 16f#	.	.	.	.	.
.	.	.	.	12b 12ee-	.	.
.	16F# 16c 16f#	.	.	.	.	.
.	.	.	.	12bJ 12ee-	.	.
.	16F#JJ 16c 16f#	.	.	.	.	.
.	16F#LL 16c 16f#	.	.	4rc	12bL 12ee- 12bb]	.
.	16F# 16c 16f#	.	.	.	.	.
.	.	.	.	.	12b-X 12ee- 12bb-X	.
.	16F# 16c 16f#	.	.	.	.	.
.	.	.	.	.	12aJ 12ee- 12aa	.
.	16F#JJ 16c 16f#	.	.	.	.	.
=186	=186	=186	=186	=186	=186	=186
2.r	4AA	16AAKL	.	4F#X 4c	8fnL	.
.	.	8DD	.	.	.	.
.	.	.	.	.	8eJ	.
.	.	16DDJk	.	.	.	.
.	.	8qGG#X	.	.	.	.
.	4AA	16AAKL	.	2F# 2Bn	8e-XL	.
.	.	8DD	.	.	.	.
.	.	.	.	.	[8dJ	.
.	.	16DDJk	.	.	.	.
.	4GG#	16GG#KL	.	.	12dL]	.
.	.	8DD	.	.	.	.
.	.	.	.	.	12fn	.
.	.	.	.	.	12g#XJ	.
.	.	16DDJk	.	.	.	.
*	*	*	*	*v	*v	*
=187	=187	=187	=187	=187	=187
.	[8qFFFn 8qBBB	.	.	.	.
2.r	12FFFL] 12BBB 12B 12e--	4G-X 4g-X	.	[2b	.
.	24FFFL	.	.	.	.
.	24BBB	.	.	.	.
.	24B	.	.	.	.
.	24e--JJ	.	.	.	.
.	2a	16G-KL 16g-	.	.	.
.	.	8.G-J 8.g-	.	.	.
.	.	16G-KL 16g-	.	8b]	.
.	.	8.G-J 8.g-	.	.	.
.	.	.	.	8r	.
=188	=188	=188	=188	=188	=188
2.r	4rEE	20G-XLL	.	6B 6d 6g-X	.
.	.	20BB	.	.	.
.	.	20FF	.	.	.
.	.	20GG-X	.	.	.
.	.	.	.	[12c [12e-X [12a-X	.
.	.	20BBBJJ	.	.	.
.	4rEE	20FFFLL	.	4c_ 4e-_ 4a-_	.
.	.	20BBB	.	.	.
.	.	20GG-	.	.	.
.	.	20FF	.	.	.
.	.	20BBJJ	.	.	.
.	12.rEE	24G-LL	.	6c] 6e-] 6a-]	.
.	.	24BB	.	.	.
.	.	24FF	.	.	.
.	24rEE	24GG-	.	.	.
.	[12BBB	24BBB	.	12d 12f 12an	.
.	.	[24FFFJJ	.	.	.
=189	=189	=189	=189	=189	=189
*	*	*^	*	*	*
2.r	4G-X 4g-X	12BBB]	12FFFL] 12B 12e--	.	[2b	.
.	.	12rEE	24FFFL	.	.	.
.	.	.	24BBB	.	.	.
.	.	12rEE	24B	.	.	.
.	.	.	24e--JJ	.	.	.
.	16G-KL 16g-	4rEE	2a	.	.	.
.	8.G-J 8.g-	.	.	.	.	.
.	16G-KL 16g-	4rEE	.	.	8b]	.
.	8.G-J 8.g-	.	.	.	.	.
.	.	.	.	.	8r	.
*	*	*v	*v	*	*	*
=190	=190	=190	=190	=190	=190
2.r	4rEE	20G-XLL	.	6B 6d 6g-X	.
.	.	20BB	.	.	.
.	.	20FF	.	.	.
.	.	20GG-X	.	.	.
.	.	.	.	[12c [12e-X [12a-X	.
.	.	20BBBJJ	.	.	.
.	4rEE	20FFFLL	.	6c] 6e-] 6a-]	.
.	.	20BBB	.	.	.
.	.	20GG-	.	.	.
.	.	20DD	.	.	.
.	.	.	.	12d 12f 12b--	.
.	.	20AA-XJJ	.	.	.
.	8B--	16B--KL	.	4e-X 4g- 4cc-X	.
.	.	8.B--J	.	.	.
.	8rEE	.	.	.	.
=191	=191	=191	=191	=191	=191
*	*	*	*	*^	*
2.r	20G#LL	10.G#X	.	[4cn	6e#X 6g#X 6ccn	.
.	20E#X	.	.	.	.	.
.	20BBn	.	.	.	.	.
.	20C	10F#X	.	.	.	.
.	.	.	.	.	[12f#X [12an [12dd	.
.	20EE#XJJ	.	.	.	.	.
.	20BBBLL	4rc	.	6c]	6f#] 6a] 6dd]	.
.	20EE#	.	.	.	.	.
.	20C	.	.	.	.	.
.	20GG#X	.	.	.	.	.
.	.	.	.	[8qBn	.	.
.	.	.	.	12B]	[12e-X 12g#X 12bn 12ee-X	.
.	20DJJ	.	.	.	.	.
.	8c	16cKL	.	4rc	4e-] 4a 4cc 4ffn	.
.	.	8.cJ	.	.	.	.
.	8rEE	.	.	.	.	.
=192	=192	=192	=192	=192	=192	=192
2.r	4rEE	20G-XLL 20B	.	[4g-X	6b 6dd 6gg-X	.
.	.	20BB	.	.	.	.
.	.	20FF	.	.	.	.
.	.	20GG-X	.	.	.	.
.	.	.	.	.	[12cc [12ee-X [12aa-X	.
.	.	20BBBJJ	.	.	.	.
.	4rEE	20FFFLL	.	6g-]	6cc] 6ee-] 6aa-]	.
.	.	20BBB	.	.	.	.
.	.	20GG-	.	.	.	.
.	.	20DD	.	.	.	.
.	.	.	.	[8qf	.	.
.	.	.	.	12f]	[12b-- 12dd 12ff 12bb--	.
.	.	20AA-XJJ	.	.	.	.
.	12B--L	12B--L	.	4rc	12b--L] 12ee-X 12gg-X 12ccc-X	.
.	24G#L	12.G#X	.	.	[12ccn 12ee#X 12gg#X 12cccn	.
.	24BBBn	.	.	.	.	.
.	24EE#X	.	.	.	12ccJ] 12ff#X 12aan 12ddd	.
.	24F#JJ	24F#XJk	.	.	.	.
=193	=193	=193	=193	=193	=193	=193
2.r	12rEE	4B-- 4b--	.	12ffnL 12fffn	4ccc	.
.	24AAA-XLL	.	.	12ff-X 12fff-X	.	.
.	24DD	.	.	.	.	.
.	24C	.	.	12ee-XJ 12eee-X	.	.
.	24G-XJJ	.	.	.	.	.
.	4rEE	2E-X 2e-X	.	[4bn [4bbn	2ff#X	.
.	24GGG#XLL	.	.	12bL] 12bb]	.	.
.	24DD	.	.	.	.	.
.	24C	.	.	12b-X 12bb-X	.	.
.	24F#XJJ	.	.	.	.	.
.	12rEE	.	.	12aJ 12aa	.	.
=194	=194	=194	=194	=194	=194	=194
2.r	12rEE	4E-X 4e-X	.	12bnL 12bbn	4ff#X	.
.	24GGG#XLL	.	.	12b-X 12bb-X	.	.
.	24DD	.	.	.	.	.
.	24C	.	.	12aJ 12aa	.	.
.	24F#XJJ	.	.	.	.	.
.	4rEE	2BB-- 2B--	.	[4fn [4ffn	2cc	.
.	24AAA-XLL	.	.	12fL] 12ff]	.	.
.	24DD	.	.	.	.	.
.	24C	.	.	12f-X 12ff-X	.	.
.	24G-XJJ	.	.	.	.	.
.	12rEE	.	.	12e-XJ 12ee-X	.	.
*	*v	*v	*	*	*	*
=195	=195	=195	=195	=195	=195
2.r	12r	.	12fnL 12ffn	4cc	.
.	24AAA-XLL	.	12f-X 12ff-X	.	.
.	24DD	.	.	.	.
.	24C	.	[12e-XJ 12ee-X	.	.
.	24G-XJJ	.	.	.	.
.	4r	.	2e-]	12bnL	.
.	.	.	.	12b-X	.
.	.	.	.	12anJ	.
.	24GGG#XLL	.	.	12bnL	.
.	24DD	.	.	.	.
.	24C	.	.	12b-X	.
.	24F#XJJ	.	.	.	.
.	12r	.	.	12aJ	.
=196	=196	=196	=196	=196	=196
2.r	4r	.	2B--	12fnL	.
.	.	.	.	12f-X	.
.	.	.	.	12e-XJ	.
.	24AAA-XLL	.	.	12fnL	.
.	24DD	.	.	.	.
.	24C	.	.	12f-X	.
.	24G-XJJ	.	.	.	.
.	12r	.	.	12e-XJ	.
.	4r	.	4E-X	12BnL	.
.	.	.	.	12B-X	.
.	.	.	.	12AnJ	.
*	*	*	*v	*v	*
*	*	*	*clefF4	*
=197	=197	=197	=197	=197
2.r	12r	.	12BnL	.
.	24AAA-XLL	.	12B-X	.
.	24DD	.	.	.
.	24BB--	.	12AnJ	.
.	24E-XJJ	.	.	.
.	4r	.	12FnL	.
.	.	.	12F-X	.
.	.	.	12E-XJ	.
.	4r	.	12BBnL	.
.	.	.	12BB-X	.
.	.	.	24AAJk	.
.	.	.	24r	.
*	*	*	*clefG2	*
=198	=198	=198	=198	=198
*	*^	*	*	*
.	[8qAA-X	.	.	.	.
*	*	*	*	*^	*
2.r	8EE-X 8AA-] 8G-X	4rc	.	12rc	6raa	.
.	.	.	.	12cL	.	.
.	8rEE	.	.	.	.	.
.	.	.	.	[12g-XJ	[12a-X	.
.	4rEE	4f	.	12g-L]	6a-]	.
.	.	.	.	12c	.	.
.	.	.	.	[12g-J	12b--	.
.	4rEE	4B--	.	12g-L]	6cc	.
.	.	.	.	12c	.	.
.	.	.	.	12g-J	12dd	.
*	*v	*v	*	*	*	*
=199	=199	=199	=199	=199	=199
2.r	8GG-X 8C 8An	.	4c 4f 4an	6ff	.
.	8r	.	.	.	.
.	.	.	.	12a	.
.	12CL	.	12AL	[4f	.
.	12GG-J	.	12c	.	.
.	12r	.	12AJ	.	.
.	12GG-L	.	12cL	6f]	.
.	12GGG-XJ	.	12A	.	.
.	12r	.	12cJ	12en	.
=200	=200	=200	=200	=200	=200
*	*^	*	*	*	*
2.r	8FF#X 8BB 8A	4rc	.	12rc	6raa	.
.	.	.	.	12d#XL	.	.
.	8rEE	.	.	.	.	.
.	.	.	.	[12aJ	[12b	.
.	4rEE	4g#X	.	12aL]	6b]	.
.	.	.	.	12d#	.	.
.	.	.	.	[12aJ	12cc	.
.	4rEE	4c	.	12aL]	6dd#X	.
.	.	.	.	12d#	.	.
.	.	.	.	12aJ	12ee#X	.
*	*v	*v	*	*	*	*
=201	=201	=201	=201	=201	=201
2.r	8AA 8D#X 8B#X	.	4d#X 4g#X 4b#X	6gg#X	.
.	8r	.	.	.	.
.	.	.	.	12b#	.
.	12D#L	.	12B#XL	[4g#	.
.	12AAJ	.	12d#	.	.
.	12r	.	12B#J	.	.
.	12AAL	.	12d#L	6g#]	.
.	12AAAJ	.	12B#	.	.
.	12r	.	12d#J	12gn	.
*	*	*	*v	*v	*
=202	=202	=202	=202	=202
2.r	8AA 8Dn 8c	.	24f#XLL	.
.	.	.	24bbnJ	.
.	.	.	24r	.
.	8r	.	24aaL	.
.	.	.	24ffn	.
.	.	.	24ee-XJJ	.
.	2C 2F#X 2d#X	.	[4b	.
.	.	.	6b]	.
.	.	.	12b-X	.
=203	=203	=203	=203	=203
2.r	8C 8Fn 8e-X	.	24aLL	.
.	.	.	24dddnJ	.
.	.	.	24r	.
.	8r	.	24cccL	.
.	.	.	24aa-X	.
.	.	.	24gg-XJJ	.
.	4E-X 4An 4f#X	.	6dd	.
.	.	.	12dd-X	.
.	8E- 8A-X 8g-X	.	24ccLL	.
.	.	.	24fffnJ	.
.	.	.	24r	.
.	8r	.	24eee-XL	.
.	.	.	24ccc-X	.
.	.	.	24bb--JJ	.
=204	=204	=204	=204	=204
.	8qc-X	.	.	.
2.r	4G-X 4cn	.	12anL 12ff	.
.	.	.	12a 12ff	.
.	.	.	12aJ 12ff	.
.	8qF	.	.	.
.	4C 4G-	.	12aL 12ff	.
.	.	.	12a 12ff	.
.	.	.	12aJ 12ff	.
.	8qC-X	.	.	.
.	4GG-X 4Cn	.	12aL 12ff	.
.	.	.	12a 12ff	.
.	.	.	12aJ 12ff	.
=205	=205	=205	=205	=205
2.r	4r	.	4r	.
.	[8qGG-X 8qC-X [8qA	.	.	.
.	4GG-] 4Cn 4A]	.	12fL 12a 12ff	.
.	.	.	12f 12a 12ff	.
.	.	.	12fJ 12a 12ff	.
.	[8qGG- 8qC-X [8qAn	.	.	.
.	4GG-] 4Cn 4A]	.	12eL 12a 12ee	.
.	.	.	12e 12a 12ee	.
.	.	.	12eJ 12a 12ee	.
=206	=206	=206	=206	=206
2.r	6CCC 6CC	.	12aL 12b 12ee-X 12aa 12bb	.
.	.	.	12a 12b 12ee- 12aa 12bb	.
.	12FF 12F	.	12aJ 12b 12ee- 12aa 12bb	.
.	2GG-X 2G-X	.	6a 6b 6ee- 6aa 6bb	.
.	.	.	[12a [12b [12ee- [12aa [12bb	.
.	.	.	12aL] 12b] 12ee-] 12aa] 12bb]	.
.	.	.	12a 12b 12ee- 12aa 12bb	.
.	.	.	12aJ 12b 12ee- 12aa 12bb	.
=207	=207	=207	=207	=207
2.r	4r	.	4r	.
.	4CC 4GGn 4E-X	.	4A 4e-X 4b	.
.	4CC 4GG-X 4E-	.	4A-X	.
=208	=208	=208	=208	=208
2.r	8CC 8FF 8E-X	.	24AnLL	.
.	.	.	24bJ	.
.	.	.	24r	.
.	8r	.	24aL	.
.	.	.	24f	.
.	.	.	24e-XJJ	.
.	[2CC [2GG-X [2E-	.	[2B	.
=209	=209	=209	=209	=209
2.r	4.CC] 4.GG-] 4.E-]	.	4.B]	.
.	4CC 4GG-X 4E-X	.	4B	.
.	8CC 8GG- 8E-	.	8B-X	.
=210	=210	=210	=210	=210
*	*^	*	*	*
2.r	4.GGn	[2.CC [2.E-X	.	[2.A [2.e-X [2.bn	.
.	8FF#X	.	.	.	.
.	[4GG	.	.	.	.
=211	=211	=211	=211	=211	=211
2.r	4.GG]	4.CC] 4.E-]	.	4.A] 4.e-] 4.b]	.
.	4GG	4.CC 4.E-X	.	4B	.
.	8GG-X	.	.	8B-X	.
=212	=212	=212	=212	=212	=212
2.r	4.GGn	[2.CC [2.E-X	.	[2.A [2.e-X [2.bn	.
.	8FF#X	.	.	.	.
.	[4GG	.	.	.	.
=213	=213	=213	=213	=213	=213
2.r	8GG]	8CC] 8E-]	.	8A] 8e-] 8b]	.
.	8rEE	8rc	.	8r	.
.	4rEE	4CC 4GG 4E-X	.	4A 4e-X 4b	.
.	4rEE	4CC 4GG-X 4E-	.	4A-X	.
*	*v	*v	*	*	*
=214	=214	=214	=214	=214
2.r	16FFLL 16E-X	.	24AnLL	.
.	.	.	24bJ	.
.	16CCJJ	.	.	.
.	.	.	24r	.
.	8r	.	24aL	.
.	.	.	24f	.
.	.	.	24e-XJJ	.
.	16DD#XLL 16C	.	2F#X 2B	.
.	16AAAJJ	.	.	.
.	8r	.	.	.
.	16AAALL	.	.	.
.	16AAAAJJ	.	.	.
.	8r	.	.	.
=215	=215	=215	=215	=215
2.r	16AA-XLL 16G-X	.	24cLL	.
.	.	.	24ddJ	.
.	16EE-XJJ	.	.	.
.	.	.	24r	.
.	8r	.	24ccL	.
.	.	.	24a-X	.
.	.	.	24g-XJJ	.
.	16FF#XLL 16E-X	.	2An 2d	.
.	16CCJJ	.	.	.
.	8r	.	.	.
.	16CCLL	.	.	.
.	16CCCJJ	.	.	.
.	8r	.	.	.
=216	=216	=216	=216	=216
*	*	*	*^	*
2.r	16BBLL 16An	.	4rc	6d#X	.
.	16FF#XJJ	.	.	.	.
.	8r	.	.	.	.
.	.	.	.	[12e#X	.
.	24AALL 24G-X	.	6c	6e#]	.
.	24EE-XJJ	.	.	.	.
.	12r	.	.	.	.
.	[12AA [12Dn	.	[12c	12f#X	.
.	12AA] 12D]	.	12c]	12g#XL	.
.	6C 6Fn	.	6e-X	12a	.
.	.	.	.	12bJ	.
=217	=217	=217	=217	=217	=217
*	*	*	*	*^	*
2.r	4BB 4A	.	8d#X	4f#X	12ddnL	.
.	.	.	.	.	12cc#X	.
.	.	.	8r	.	.	.
.	.	.	.	.	12ccnJ	.
.	[8qBBB [8qEE#X	.	.	.	.	.
.	2BBB] 2EE#] 2D#X 2A	.	2c	4rc	[4g#X	.
.	.	.	.	4rc	12g#L]	.
.	.	.	.	.	12gn	.
.	.	.	.	.	12f#J	.
*	*	*	*	*v	*v	*
=218	=218	=218	=218	=218	=218
*	*^	*	*	*	*
2.r	4FF#	16FF#XKL	.	4D#X 4A	8dnL	.
.	.	8BBB	.	.	.	.
.	.	.	.	.	8c#XJ	.
.	.	16BBBJk	.	.	.	.
.	.	8qEE#X	.	.	.	.
.	4FF#	16FF#KL	.	2D# 2G#X	8cnL	.
.	.	8BBB	.	.	.	.
.	.	.	.	.	[8BJ	.
.	.	16BBBJk	.	.	.	.
.	4EE#	16EE#KL	.	.	12BL]	.
.	.	8BBB	.	.	.	.
.	.	.	.	.	12dn	.
.	.	.	.	.	12e#XJ	.
.	.	[16BBBJk	.	.	.	.
*	*	*	*	*v	*v	*
=219	=219	=219	=219	=219	=219
2.r	4rEE	12BBBL] 12EEn 12Dn 12G#X 12d	.	[2g#X	.
.	.	24BBBL	.	.	.
.	.	24EE	.	.	.
.	.	24D	.	.	.
.	.	24G#JJ	.	.	.
.	4rEE	4f#X	.	.	.
.	12rEE	12f#L	.	12g#]	.
.	12rEE	12fn	.	12r	.
.	24EELL	12DDJ 12D	.	12G#X	.
.	24FFnJJ	.	.	.	.
=220	=220	=220	=220	=220	=220
2.r	4rEE	2.CC 2.GG-X 2.E-X	.	2.A 2.e-X 2.b	.
.	16CCCKL 16CC	.	.	.	.
.	8.CCCJ 8.CC	.	.	.	.
.	4rEE	.	.	.	.
*	*v	*v	*	*	*
=221	=221	=221	=221	=221
2.r	4r	.	4r	.
.	4CC 4GGn 4E-X	.	4A 4e-X 4b	.
.	4CC 4GG-X 4E-	.	4A-X	.
=222	=222	=222	=222	=222
2.r	8CC 8FF 8E-X	.	24AnLL	.
.	.	.	24bJ	.
.	.	.	24r	.
.	8r	.	24aL	.
.	.	.	24f	.
.	.	.	24e-XJJ	.
.	[2CC [2GG-X [2E-	.	[2B	.
=223	=223	=223	=223	=223
2.r	4.CC] 4.GG-] 4.E-]	.	4.B]	.
.	4CC 4GG-X 4E-X	.	4B	.
.	8CC 8GG- 8E-	.	8B-X	.
=224	=224	=224	=224	=224
*	*^	*	*	*
2.r	4.GGn	[2.CC [2.E-X	.	[2.A [2.e-X [2.bn	.
.	8FF#X	.	.	.	.
.	[4GG	.	.	.	.
=225	=225	=225	=225	=225	=225
2.r	4.GG]	4.CC] 4.E-]	.	4.A] 4.e-] 4.b]	.
.	4GG	4.CC 4.E-X	.	4B	.
.	8GG-X	.	.	8B-X	.
=226	=226	=226	=226	=226	=226
2.r	4.GGn	[2.CC [2.E-X	.	[2.A [2.e-X [2.bn	.
.	8FF#X	.	.	.	.
.	[4GG	.	.	.	.
=227	=227	=227	=227	=227	=227
2.r	8GG]	8CC] 8E-]	.	8A] 8e-] 8b]	.
.	8rEE	8rc	.	8r	.
.	4rEE	4CC 4GG 4E-X	.	4A 4e-X 4b	.
.	4rEE	4CC 4GG-X 4E-	.	4A-X	.
*	*v	*v	*	*	*
=228	=228	=228	=228	=228
2.r	16FFLL 16E-X	.	24AnLL	.
.	.	.	24bJ	.
.	16CCJJ	.	.	.
.	.	.	24r	.
.	8r	.	24aL	.
.	.	.	24f	.
.	.	.	24e-XJJ	.
.	16DD#XLL 16C	.	2F#X 2B	.
.	16AAAJJ	.	.	.
.	8r	.	.	.
.	16AAALL	.	.	.
.	16AAAAJJ	.	.	.
.	8r	.	.	.
=229	=229	=229	=229	=229
2.r	16AA-XLL 16G-X	.	24cLL	.
.	.	.	24ddJ	.
.	16EE-XJJ	.	.	.
.	.	.	24r	.
.	8r	.	24ccL	.
.	.	.	24a-X	.
.	.	.	24g-XJJ	.
.	8r	.	8d	.
.	4EE- 4BB--	.	4G-X 4d	.
.	8EE- 8BB--	.	8G- 8d-X	.
=230	=230	=230	=230	=230
2.r	16AA-XLL 16G-X	.	24cLL	.
.	.	.	24ddnJ	.
.	16EE-XJJ	.	.	.
.	.	.	24r	.
.	8r	.	24ccL	.
.	.	.	24a-X	.
.	.	.	24g-XJJ	.
.	16FF#XLL 16E-X	.	2An 2d	.
.	16CCJJ	.	.	.
.	8r	.	.	.
.	16CCLL	.	.	.
.	16CCCJJ	.	.	.
.	8r	.	.	.
=231	=231	=231	=231	=231
2.r	16BBLL 16A	.	24d#XLL	.
.	.	.	24ee#XJ	.
.	16FF#XJJ	.	.	.
.	.	.	24r	.
.	8r	.	24dd#XL	.
.	.	.	24b	.
.	.	.	24aJJ	.
.	12r	.	12e#X	.
.	6FF# 6C	.	6A 6e#	.
.	6FF# 6C	.	6A 6e#	.
.	12FF# 12C	.	12A 12en	.
=232||	=232||	=232||	=232||	=232||
*M9/8	*M9/8	*	*M9/8	*
*	*^	*	*^	*
8%9r	16c#LL	4.c#X	.	4d#X 4dd#	2.a 2.dd#X	.
.	16A	.	.	.	.	.
.	16BB	.	.	.	.	.
.	16FF#XJJ	.	.	.	.	.
.	8rEE	.	.	[8e#X [8ee#X	.	.
.	16c#LL	4.c#	.	4e#] 4ee#]	.	.
.	16A	.	.	.	.	.
.	16D#X	.	.	.	.	.
.	16EE#XJJ	.	.	.	.	.
.	8rEE	.	.	8f#X 8ff#X	.	.
.	16cLL	4.cn	.	8g#XL 8gg#X	4.dd# 4.ff#	.
.	16A	.	.	.	.	.
.	16D#	.	.	8a 8aa	.	.
.	16EE#JJ	.	.	.	.	.
.	8rEE	.	.	8bJ 8bb	.	.
=233	=233	=233	=233	=233	=233	=233
8%9r	16aLL	4.a	.	8ddnL 8dddn	4.ff#X	.
.	16d#X	.	.	.	.	.
.	16A	.	.	8cc#X 8ccc#X	.	.
.	16D#X	.	.	.	.	.
.	16EE#X	.	.	8ccnJ 8cccn	.	.
.	16BBBJJ	.	.	.	.	.
.	8rEE	8rc	.	[4.g#X [4.gg#X	2.cc	.
.	4rEE	16BBBLL	.	.	.	.
.	.	16EE#	.	.	.	.
.	.	16D#	.	.	.	.
.	.	16AJJ	.	.	.	.
.	4rEE	8d#	.	8g#L] 8gg#]	.	.
.	.	8rc	.	8gn 8ggn	.	.
.	8rEE	8rc	.	8f#XJ 8ff#X	.	.
*	*v	*v	*	*	*	*
*	*	*	*v	*v	*
=234	=234	=234	=234	=234
*M3/4	*M3/4	*	*M3/4	*
*	*^	*	*^	*
2.r	2FF#X 2F#	16F#XLL	.	4d#X 4a	8ddnL	.
.	.	16BB	.	.	.	.
.	.	16FF#	.	.	8cc#XJ	.
.	.	[16BBBJJ	.	.	.	.
.	.	16BBBLL]	.	2d# 2g#X	8ccnL	.
.	.	16FF#	.	.	.	.
.	.	16BB	.	.	[8bJ	.
.	.	16F#JJ	.	.	.	.
.	4EE#X 4E#	16E#XLL	.	.	12bL]	.
.	.	16BB	.	.	.	.
.	.	.	.	.	12ddn	.
.	.	16EE#	.	.	.	.
.	.	.	.	.	12ee#XJ	.
.	.	16BBBJJ	.	.	.	.
*	*v	*v	*	*	*	*
=235	=235	=235	=235	=235	=235
2.r	12BBB 12EEn 12BB 12En	.	4dn 4g#X 4dd	4gg#X	.
.	24BBBLL	.	.	.	.
.	24EE	.	.	.	.
.	24D	.	.	.	.
.	24G#XJJ	.	.	.	.
.	4.f#X	.	4rc	2d 2b	.
.	.	.	4rc	.	.
.	8e#X	.	.	.	.
*	*	*	*v	*v	*
=236	=236	=236	=236	=236
*M9/8	*M9/8	*	*M9/8	*
*	*^	*	*^	*
8%9r	16BLL	4.B	.	4c#X 4cc#	2.gn 2.cc#X	.
.	16Gn	.	.	.	.	.
.	16AA	.	.	.	.	.
.	16EEnJJ	.	.	.	.	.
.	8rEE	.	.	[8d#X [8dd#X	.	.
.	16BLL	4.B	.	4d#] 4dd#]	.	.
.	16G	.	.	.	.	.
.	16C#X	.	.	.	.	.
.	16DD#XJJ	.	.	.	.	.
.	8rEE	.	.	8en 8een	.	.
.	16B-LL	4.B-X	.	8f#XL 8ff#X	4.cc# 4.ee	.
.	16G	.	.	.	.	.
.	16C#	.	.	8g 8gg	.	.
.	16DD#JJ	.	.	.	.	.
.	8rEE	.	.	8aJ 8aa	.	.
=237	=237	=237	=237	=237	=237	=237
8%9r	16gLL	4.g	.	8ccnL 8cccn	4.ee	.
.	16c#X	.	.	.	.	.
.	16G	.	.	8b 8bb	.	.
.	16C#X	.	.	.	.	.
.	16DD#X	.	.	8b-XJ 8bb-X	.	.
.	16AAAJJ	.	.	.	.	.
.	8rEE	8rc	.	[4.f#X [4.ff#X	2.b-	.
.	4rEE	16AAALL	.	.	.	.
.	.	16DD#	.	.	.	.
.	.	16C#	.	.	.	.
.	.	16GJJ	.	.	.	.
.	4rEE	8c#	.	8f#L] 8ff#]	.	.
.	.	8rc	.	8fn 8ffn	.	.
.	8rEE	8rc	.	8eJ 8ee	.	.
*	*v	*v	*	*	*	*
*	*	*	*v	*v	*
=238	=238	=238	=238	=238
*M3/4	*M3/4	*	*M3/4	*
*	*^	*	*^	*
2.r	2EE 2E	16ELL	.	4c#X 4g	8ccnL	.
.	.	16AA	.	.	.	.
.	.	16EE	.	.	8bnJ	.
.	.	[16AAAJJ	.	.	.	.
.	.	16AAALL]	.	2c# 2f#X	8b-XL	.
.	.	16EE	.	.	.	.
.	.	16AA	.	.	[8aJ	.
.	.	16EJJ	.	.	.	.
.	4DD#X 4D#	16D#XLL	.	.	12aL]	.
.	.	16AA	.	.	.	.
.	.	.	.	.	12ccn	.
.	.	16DD#	.	.	.	.
.	.	.	.	.	12dd#XJ	.
.	.	16AAAJJ	.	.	.	.
*	*v	*v	*	*	*	*
=239	=239	=239	=239	=239	=239
2.r	12AAA 12DDn 12AA 12Dn	.	4cn 4f#X 4cc	4ff#X	.
.	24AAALL	.	.	.	.
.	24DD	.	.	.	.
.	24C	.	.	.	.
.	24F#XJJ	.	.	.	.
.	4.e	.	4rc	2c 2bn	.
.	.	.	4rc	.	.
.	8d#X	.	.	.	.
=240	=240	=240	=240	=240	=240
*	*^	*	*	*	*
2.r	2DD#X 2D#	16D#XLL	.	4B#X 4f#X	8bnL	.
.	.	16GG#X	.	.	.	.
.	.	16DD#	.	.	8a#XJ	.
.	.	[16GGG#XJJ	.	.	.	.
.	.	16GGG#LL]	.	2B# 2e#X	8anL	.
.	.	16DD#	.	.	.	.
.	.	16GG#	.	.	[8g#XJ	.
.	.	16D#JJ	.	.	.	.
.	4CC##X 4C##	16C##XLL	.	.	12g#L]	.
.	.	16GG#	.	.	.	.
.	.	.	.	.	12bn	.
.	.	16CC##	.	.	.	.
.	.	.	.	.	12cc##XJ	.
.	.	16GGG#JJ	.	.	.	.
*	*v	*v	*	*	*	*
=241	=241	=241	=241	=241	=241
2.r	12GGG#X 12CC#X 12GG#X 12C#X	.	4Bn 4e#X 4b	4ee#X	.
.	24GGG#LL	.	.	.	.
.	24CC#	.	.	.	.
.	24BB	.	.	.	.
.	24E#XJJ	.	.	.	.
.	4.d#X	.	4rc	2B 2b	.
.	.	.	4rc	.	.
.	8dn	.	.	.	.
*	*	*	*v	*v	*
=242	=242	=242	=242	=242
*	*^	*	*	*
2.r	4rEE	12rc	.	4r	.
.	.	24GGGnLL	.	.	.
.	.	24CC#X	.	.	.
.	.	24BB	.	.	.
.	.	24E#XJJ	.	.	.
.	4rEE	4.d#X	.	2B 2b	.
.	4B	.	.	.	.
.	.	8dn	.	.	.
=243	=243	=243	=243	=243	=243
*	*	*	*	*^	*
2.r	24rEE	8cnL	.	4rc	4raa	.
.	24FFF#XLL	.	.	.	.	.
.	24DD	.	.	.	.	.
.	24GG#X	8cJ	.	.	.	.
.	24C	.	.	.	.	.
.	24F#XJJ	.	.	.	.	.
.	8eL	8rc	.	4rc	4B 4b	.
.	32cLL	8c	.	.	.	.
.	32D	.	.	.	.	.
.	32FF#X	.	.	.	.	.
.	32DJJJ	.	.	.	.	.
.	32BLLL	8BL	.	12rc	24raa	.
.	32D	.	.	.	.	.
.	.	.	.	.	12dL	.
.	32FF#	.	.	.	.	.
.	.	.	.	24rc	.	.
.	32D	.	.	.	.	.
.	32G#	8G#XJ	.	24B	24e-Xk	.
.	32D	.	.	.	.	.
.	.	.	.	12c	12f#XJ	.
.	32FF#	.	.	.	.	.
.	32DJJJ	.	.	.	.	.
*	*	*	*	*v	*v	*
*	*clefG2	*	*	*	*
=244	=244	=244	=244	=244	=244
*^	*	*	*	*	*
32ALLL	8AL	24rc	12raa	.	4r	.
32BB	.	.	.	.	.	.
.	.	12BL	.	.	.	.
32FF#X	.	.	.	.	.	.
.	.	.	24raa	.	.	.
32BB	.	.	.	.	.	.
32A	8AJ	[24ck	24g#X	.	.	.
32BB	.	.	.	.	.	.
.	.	12cJ]	12a	.	.	.
32FF#	.	.	.	.	.	.
32FF#JJJ	.	.	.	.	.	.
32FFF#XLLL	8rc	24rc	12raa	.	[2b	.
32FF#	.	.	.	.	.	.
.	.	12BL	.	.	.	.
32FF#	.	.	.	.	.	.
.	.	.	24raa	.	.	.
32BB	.	.	.	.	.	.
32A	8A	24ck	24g#	.	.	.
32BB	.	.	.	.	.	.
.	.	12d#XJ	12a	.	.	.
32FF#	.	.	.	.	.	.
32BBJJJ	.	.	.	.	.	.
32G#LLL	8G#XL	24rc	12raa	.	.	.
32BB	.	.	.	.	.	.
.	.	12BL	.	.	.	.
32FF#	.	.	.	.	.	.
.	.	.	24raa	.	.	.
32BB	.	.	.	.	.	.
32E#	8E#XJ	24cL	24g#	.	.	.
32BB	.	.	.	.	.	.
.	.	24d#	12a	.	.	.
32FF#	.	.	.	.	.	.
.	.	24e#XJJ	.	.	.	.
32BBJJJ	.	.	.	.	.	.
=245	=245	=245	=245	=245	=245	=245
*	*	*	*^	*	*	*
32ALLL	8AL	4r	24rc	12raa	.	6b]	.
32BB	.	.	.	.	.	.	.
.	.	.	12BL	.	.	.	.
32FF#X	.	.	.	.	.	.	.
.	.	.	.	24raa	.	.	.
32BB	.	.	.	.	.	.	.
32A	8AJ	.	24cL	24g#X	.	.	.
32BB	.	.	.	.	.	.	.
.	.	.	24d#X	12a	.	[12cc	.
32A	.	.	.	.	.	.	.
.	.	.	24e#XJJ	.	.	.	.
32d#XJJJ	.	.	.	.	.	.	.
32g#XLLL	8rc	4r	4g#	12raa	.	6cc]	.
32d#	.	.	.	.	.	.	.
32A	.	.	.	.	.	.	.
.	.	.	.	24raa	.	.	.
32d#	.	.	.	.	.	.	.
32A	8A	.	.	24b	.	.	.
32BB	.	.	.	.	.	.	.
.	.	.	.	12cc	.	[12dd#X	.
32FF#	.	.	.	.	.	.	.
32BBJJJ	.	.	.	.	.	.	.
32ALLL	8AL	24r	4c	12raa	.	6dd#]	.
32BB	.	.	.	.	.	.	.
.	.	12g#L	.	.	.	.	.
32FF#	.	.	.	.	.	.	.
.	.	.	.	24raa	.	.	.
32BB	.	.	.	.	.	.	.
32A	8AJ	24aL	.	24cc	.	.	.
32d#	.	.	.	.	.	.	.
.	.	24b	.	12dd#X	.	12ee#X	.
32g#	.	.	.	.	.	.	.
.	.	24ccJJ	.	.	.	.	.
32d#JJJ	.	.	.	.	.	.	.
*	*	*	*v	*v	*	*	*
=246	=246	=246	=246	=246	=246	=246
32cLLL	8cL	12rc	12raa	.	[2.gg#X	.
32D#X	.	.	.	.	.	.
32AA	.	.	.	.	.	.
.	.	24rc	24raa	.	.	.
32D#	.	.	.	.	.	.
32c	8cJ	[24cn	[24g#X 24cc##X	.	.	.
32D#	.	.	.	.	.	.
.	.	12c]	12g#] 12dd#X	.	.	.
32AA	.	.	.	.	.	.
32AAJJJ	.	.	.	.	.	.
32AAALLL	8rc	24rc	12raa	.	.	.
32AA	.	.	.	.	.	.
.	.	12BL	.	.	.	.
32AA	.	.	.	.	.	.
.	.	.	24raa	.	.	.
32D#	.	.	.	.	.	.
32c	8c	24cnk	[24g# 24cc##X	.	.	.
32D#	.	.	.	.	.	.
.	.	12d#XJ	12g#] 12dd#	.	.	.
32AA	.	.	.	.	.	.
32D#JJJ	.	.	.	.	.	.
32BLLL	8BL	24rc	12raa	.	.	.
32D#	.	.	.	.	.	.
.	.	12BL	.	.	.	.
32AA	.	.	.	.	.	.
.	.	.	24raa	.	.	.
32D#	.	.	.	.	.	.
32G#	8G#XJ	24cnL	[24g# 24cc##X	.	.	.
32D#	.	.	.	.	.	.
.	.	24d#	12g#] 12dd#	.	.	.
32AA	.	.	.	.	.	.
.	.	24e#XJJ	.	.	.	.
32D#JJJ	.	.	.	.	.	.
=247	=247	=247	=247	=247	=247	=247
32cLLL	8cnL	24rc	12raa	.	4gg#]	.
32D#X	.	.	.	.	.	.
.	.	12BL	.	.	.	.
32AA	.	.	.	.	.	.
.	.	.	24raa	.	.	.
32D#	.	.	.	.	.	.
32c	8cJ	24cnL	[24g#XKL 24cc##X	.	.	.
32D#	.	.	.	.	.	.
.	.	24d#X	12g#J] 12dd#X	.	.	.
32AA	.	.	.	.	.	.
.	.	24e#XJJ	.	.	.	.
32AAJJJ	.	.	.	.	.	.
32AAALLL	8rc	20g#L	4raa	.	4r	.
32AA	.	.	.	.	.	.
.	.	20d#	.	.	.	.
32AA	.	.	.	.	.	.
32D#	.	.	.	.	.	.
.	.	20e#	.	.	.	.
32c	8c	.	.	.	.	.
.	.	20g#	.	.	.	.
32D#	.	.	.	.	.	.
32AA	.	.	.	.	.	.
.	.	20aJ	.	.	.	.
32D#JJJ	.	.	.	.	.	.
32cLLL	8cL	20ccnL	4raa	.	4r	.
32D#	.	.	.	.	.	.
.	.	20g#	.	.	.	.
32AA	.	.	.	.	.	.
32D#	.	.	.	.	.	.
.	.	20a	.	.	.	.
32c	8cJ	.	.	.	.	.
.	.	20b	.	.	.	.
32d#X	.	.	.	.	.	.
32g#X	.	.	.	.	.	.
.	.	20ccJ	.	.	.	.
32d#JJJ	.	.	.	.	.	.
*v	*v	*	*	*	*	*
*	*clefF4	*	*	*	*
=248	=248	=248	=248	=248	=248
*	*	*	*	*^	*
2.r	32cLLL	4c	.	20rc	2ff	.
.	32G-X	.	.	.	.	.
.	.	.	.	20cL	.	.
.	32AA-X	.	.	.	.	.
.	32AA-	.	.	.	.	.
.	.	.	.	20d	.	.
.	32AAA-X	.	.	.	.	.
.	.	.	.	20f	.	.
.	32AA-	.	.	.	.	.
.	32AA-	.	.	.	.	.
.	.	.	.	20g-XJ	.	.
.	32G-JJJ	.	.	.	.	.
.	32cLLL	8rc	.	8b-X	.	.
.	32B-X	.	.	.	.	.
.	32c	.	.	.	.	.
.	32g-XJJ	.	.	.	.	.
.	8b-XJ	8c	.	8rc	.	.
.	4b-	8cL	.	4rc	4ff-X	.
.	.	8cJ	.	.	.	.
*	*	*	*	*v	*v	*
=249	=249	=249	=249	=249	=249
2.r	32cLLL	4c	.	4ff-X	.
.	32G-X	.	.	.	.
.	32AA-X	.	.	.	.
.	32AA-	.	.	.	.
.	32AAA-X	.	.	.	.
.	32AA-	.	.	.	.
.	32AA-	.	.	.	.
.	32G-JJJ	.	.	.	.
*	*	*	*	*tremolo	*
.	32cLLL	8rc	.	32ee-XLLL	.
.	32B-X	.	.	32ff- 32ffn	.
.	32c	.	.	32ee-	.
.	32g-XJJ	.	.	32ff- 32ffn	.
.	8b-XJ	8c	.	32ee-	.
.	.	.	.	32ff- 32ffn	.
.	.	.	.	32ee-	.
.	.	.	.	32ff-JJJ 32ffn	.
.	4b-	8cL	.	32ee-LLL	.
.	.	.	.	32ff- 32ffn	.
.	.	.	.	32ee-	.
.	.	.	.	32ff-JJJ 32ffn	.
*	*	*	*	*Xtremolo	*
.	.	8cJ	.	8dd	.
=250	=250	=250	=250	=250	=250
.	.	.	.	16qdLL	.
.	.	.	.	16qf#X	.
.	.	.	.	16qg#X	.
.	.	.	.	16qa#X	.
.	.	.	.	16qcc#XJJ	.
*	*	*	*	*^	*
2.r	32A#LLL	4A#X	.	4rc	4ff#X	.
.	32E	.	.	.	.	.
.	32GG#X	.	.	.	.	.
.	32GG#	.	.	.	.	.
.	32GGG#X	.	.	.	.	.
.	32GG#	.	.	.	.	.
.	32GG#	.	.	.	.	.
.	32EJJJ	.	.	.	.	.
.	32A#LLL	4rc	.	4rc	4cc#	.
.	32A#	.	.	.	.	.
.	32c#X	.	.	.	.	.
.	32f#XJJ	.	.	.	.	.
.	8a#XJ	.	.	.	.	.
.	32AA-XLLL	4rc	.	8rc	8raa	.
.	32G-X	.	.	.	.	.
.	32cnJJJ	.	.	.	.	.
.	32rEE	.	.	.	.	.
*	*clefG2	*	*	*	*	*
.	72b-XLLL	.	.	24rc	24raa	.
.	72ccn	.	.	.	.	.
.	72gg-XJJ	.	.	.	.	.
.	12bb-XJ	.	.	72ffLLL	12ffn	.
.	.	.	.	72cccn	.	.
.	.	.	.	72fffnJ	.	.
.	.	.	.	24ggg-XJJ	.	.
*	*v	*v	*	*	*	*
*	*	*	*v	*v	*
=251	=251	=251	=251	=251
*	*	*	*^	*
2.r	32G-XLLL	.	8r	8r	.
.	32c	.	.	.	.
.	32b-XJJJ	.	.	.	.
.	32r	.	.	.	.
.	72b-LLL	.	24r	24r	.
.	72cc	.	.	.	.
.	72gg-XJJ	.	.	.	.
.	12bb-XJ	.	72ff-LLL	12ff-	.
.	.	.	72ccc	.	.
.	.	.	72fff-J	.	.
.	.	.	24ggg-JJ	.	.
.	32cLLL	.	8r	8r	.
.	32b-JJJ	.	.	.	.
.	16r	.	.	.	.
.	72b-LLL	.	24r	24r	.
.	72cc	.	.	.	.
.	72gg-JJ	.	.	.	.
.	12bb-J	.	72ee-LLL	12ee-	.
.	.	.	72ccc	.	.
.	.	.	72eee-J	.	.
.	.	.	24fff-JJ 24fffn 24ggg-	.	.
*	*	*	*	*tremolo	*
.	4bb-	.	32eee-LLL	4r	.
.	.	.	32fff- 32fffn 32ggg-	.	.
.	.	.	32eee-	.	.
.	.	.	32fff-JJJ 32fffn 32ggg-	.	.
*	*	*	*	*Xtremolo	*
.	.	.	8ddd	.	.
=252	=252	=252	=252	=252	=252
*	*^	*	*	*	*
2.r	4rc	32A#XLLL	.	8rc	8raa	.
.	.	32d	.	.	.	.
.	.	32g#XJJJ	.	.	.	.
.	.	32raa	.	.	.	.
.	.	72g#LLL	.	24rc	24raa	.
.	.	72a#X	.	.	.	.
.	.	72ddJJ	.	.	.	.
.	.	12gg#XJ	.	48ff#LLL	12ff#X	.
.	.	.	.	48ccc#XJ	.	.
.	.	.	.	24fff#XJJ	.	.
*	*clefF4	*	*	*	*	*
.	8rEE	32GG#XLLL	.	8rc	8raa	.
.	.	32E	.	.	.	.
.	.	32A#XJJJ	.	.	.	.
*	*clefG2	*	*	*	*	*
.	.	32raa	.	.	.	.
.	8d	72dLLL	.	24rc	24raa	.
.	.	72g#	.	.	.	.
.	.	72a#JJ	.	.	.	.
.	.	12ddJ	.	48cc#LLL	12cc#X	.
.	.	.	.	48ff#J	.	.
.	.	.	.	24ccc#JJ	.	.
*	*clefF4	*	*	*	*	*
.	32c#LLL	8c#XL	.	4rc	4raa	.
.	32E	.	.	.	.	.
.	32GG#	.	.	.	.	.
.	32E	.	.	.	.	.
.	32A#	8A#J	.	.	.	.
.	32E	.	.	.	.	.
.	32GG#	.	.	.	.	.
.	32EJJJ	.	.	.	.	.
=253	=253	=253	=253	=253	=253	=253
2.r	16dLL	4d	.	12rc	24raa	.
.	.	.	.	.	12eL	.
.	32g#XL	.	.	.	.	.
.	.	.	.	24rc	.	.
.	32d	.	.	.	.	.
.	32A#X	.	.	24c#X	24fnk	.
.	32E	.	.	.	.	.
.	.	.	.	[12d	[12g#XJ	.
.	32GG#X	.	.	.	.	.
.	32GG#JJJ	.	.	.	.	.
.	32GGG#XLLL	8rc	.	8d]	4g#]	.
.	32GG#	.	.	.	.	.
.	32GG#	.	.	.	.	.
.	32E	.	.	.	.	.
.	32d	8d	.	8rc	.	.
.	32E	.	.	.	.	.
.	32GG#	.	.	.	.	.
.	32EJJJ	.	.	.	.	.
.	32c#LLL	8c#XL	.	12rc	24raa	.
.	32d	.	.	.	.	.
.	.	.	.	.	12eL	.
.	32g#	.	.	.	.	.
.	.	.	.	24rc	.	.
.	32d	.	.	.	.	.
.	32A#	8A#J	.	24c#	24fk	.
.	32E	.	.	.	.	.
.	.	.	.	12d	12g#J	.
.	32GG#	.	.	.	.	.
.	32EJJJ	.	.	.	.	.
*	*	*	*	*v	*v	*
*	*clefG2	*	*	*	*
=254	=254	=254	=254	=254	=254
*^	*	*	*	*	*
32BLLL	8BL	24rc	12raa	.	4r	.
32C#X	.	.	.	.	.	.
.	.	12c#XL	.	.	.	.
32GG#X	.	.	.	.	.	.
.	.	.	24raa	.	.	.
32C#	.	.	.	.	.	.
32B	8BJ	[24dk	24a#X	.	.	.
32C#	.	.	.	.	.	.
.	.	12dJ]	12b	.	.	.
32GG#	.	.	.	.	.	.
32GG#JJJ	.	.	.	.	.	.
32GGG#XLLL	8rc	24rc	12raa	.	[2cc#X	.
32GG#	.	.	.	.	.	.
.	.	12c#L	.	.	.	.
32GG#	.	.	.	.	.	.
.	.	.	24raa	.	.	.
32C#	.	.	.	.	.	.
32B	8B	24dk	24a#	.	.	.
32C#	.	.	.	.	.	.
.	.	12e#XJ	12b	.	.	.
32GG#	.	.	.	.	.	.
32C#JJJ	.	.	.	.	.	.
32A#LLL	8A#XL	24rc	12raa	.	.	.
32C#	.	.	.	.	.	.
.	.	12c#L	.	.	.	.
32GG#	.	.	.	.	.	.
.	.	.	24raa	.	.	.
32C#	.	.	.	.	.	.
32F##	8F##XJ	24dL	24a#	.	.	.
32C#	.	.	.	.	.	.
.	.	24e#	12b	.	.	.
32GG#	.	.	.	.	.	.
.	.	24f##XJJ	.	.	.	.
32C#JJJ	.	.	.	.	.	.
=255	=255	=255	=255	=255	=255	=255
*	*	*	*^	*	*	*
32BLLL	8BL	4r	24rc	12raa	.	6cc#]	.
32C#X	.	.	.	.	.	.	.
.	.	.	12c#XL	.	.	.	.
32GG#X	.	.	.	.	.	.	.
.	.	.	.	24raa	.	.	.
32C#	.	.	.	.	.	.	.
32B	8BJ	.	24dL	24a#X	.	.	.
32C#	.	.	.	.	.	.	.
.	.	.	24e#X	12b	.	[12dd	.
32B	.	.	.	.	.	.	.
.	.	.	24f##XJJ	.	.	.	.
32e#XJJJ	.	.	.	.	.	.	.
32a#XLLL	8rc	4r	4a#	12raa	.	6dd]	.
32e#	.	.	.	.	.	.	.
32B	.	.	.	.	.	.	.
.	.	.	.	24raa	.	.	.
32e#	.	.	.	.	.	.	.
32B	8B	.	.	24cc#X	.	.	.
32C#	.	.	.	.	.	.	.
.	.	.	.	12dd	.	[12ee#X	.
32GG#	.	.	.	.	.	.	.
32C#JJJ	.	.	.	.	.	.	.
32BLLL	8BL	24r	4d	12raa	.	6ee#]	.
32C#	.	.	.	.	.	.	.
.	.	12a#L	.	.	.	.	.
32GG#	.	.	.	.	.	.	.
.	.	.	.	24raa	.	.	.
32C#	.	.	.	.	.	.	.
32B	8BJ	24bL	.	24dd	.	.	.
32e#	.	.	.	.	.	.	.
.	.	24cc#	.	12ee#X	.	12ff##X	.
32a#	.	.	.	.	.	.	.
.	.	24ddJJ	.	.	.	.	.
32e#JJJ	.	.	.	.	.	.	.
*	*	*	*v	*v	*	*	*
=256	=256	=256	=256	=256	=256	=256
32fLLL	8fnL	24rc	12raa	.	[2.bb-X	.
32B	.	.	.	.	.	.
.	.	12gnL	.	.	.	.
32Fn	.	.	.	.	.	.
.	.	.	24raa	.	.	.
32B	.	.	.	.	.	.
32f	8fJ	[24a-Xk	24een	.	.	.
32B	.	.	.	.	.	.
.	.	12a-J]	12ffn	.	.	.
32F	.	.	.	.	.	.
32GGnJJJ	.	.	.	.	.	.
32GGGLLL	8rc	24rc	12raa	.	.	.
32GG	.	.	.	.	.	.
.	.	12gL	.	.	.	.
32F	.	.	.	.	.	.
.	.	.	24raa	.	.	.
32B	.	.	.	.	.	.
32f	8f	24a-k	24ee	.	.	.
32B	.	.	.	.	.	.
.	.	12bJ	12ff	.	.	.
32F	.	.	.	.	.	.
32BJJJ	.	.	.	.	.	.
32eLLL	8eL	24rc	12raa	.	.	.
32B	.	.	.	.	.	.
.	.	12gL	.	.	.	.
32F	.	.	.	.	.	.
.	.	.	24raa	.	.	.
32B	.	.	.	.	.	.
32c#	8c#XJ	24a-L	24ee	.	.	.
32B	.	.	.	.	.	.
.	.	24b	12ff	.	.	.
32F	.	.	.	.	.	.
.	.	24cc#XJJ	.	.	.	.
32BJJJ	.	.	.	.	.	.
*	*	*v	*v	*	*	*
=257	=257	=257	=257	=257	=257
32fLLL	8fL	24r	.	2bb-]	.
32B	.	.	.	.	.
.	.	12gL	.	.	.
32F	.	.	.	.	.
32B	.	.	.	.	.
32f	8fJ	24a-XL	.	.	.
32B	.	.	.	.	.
.	.	24b	.	.	.
32F	.	.	.	.	.
.	.	24cc#XJJ	.	.	.
32BJJJ	.	.	.	.	.
16rEE	8rc	20eeL	.	.	.
.	.	20b	.	.	.
32FLLL	.	.	.	.	.
32B	.	.	.	.	.
.	.	20cc#	.	.	.
32f	8f	.	.	.	.
.	.	20ee	.	.	.
32B	.	.	.	.	.
32F	.	.	.	.	.
.	.	20ffJ	.	.	.
32BJJJ	.	.	.	.	.
32fLLL	8fL	4aa-X	.	4aa-X	.
32B	.	.	.	.	.
32F	.	.	.	.	.
32B	.	.	.	.	.
32f	8fJ	.	.	.	.
*clefG2	*	*	*	*	*
32b	.	.	.	.	.
32ff	.	.	.	.	.
32bJJJ	.	.	.	.	.
*clefF4	*	*	*	*	*
=258	=258	=258	=258	=258	=258
*	*	*^	*	*	*
32fLLL	4f	24rc	12raa	.	4aa-X	.
32B	.	.	.	.	.	.
.	.	12gL	.	.	.	.
32F	.	.	.	.	.	.
.	.	.	24raa	.	.	.
32BJJ	.	.	.	.	.	.
16r	.	[24a-Xk	24ee	.	.	.
.	.	12a-J]	12ff	.	.	.
32FLL	.	.	.	.	.	.
32GGJJJ	.	.	.	.	.	.
32DDLLL	8rc	24rc	12raa	.	[2gg	.
32GG	.	.	.	.	.	.
.	.	12gL	.	.	.	.
32F	.	.	.	.	.	.
.	.	.	24raa	.	.	.
32B	.	.	.	.	.	.
32f	8f	24a-k	24ee	.	.	.
32B	.	.	.	.	.	.
.	.	12bJ	12ff	.	.	.
32F	.	.	.	.	.	.
32BJJJ	.	.	.	.	.	.
32eLLL	8eL	24rc	12raa	.	.	.
32B	.	.	.	.	.	.
.	.	12gL	.	.	.	.
32F	.	.	.	.	.	.
.	.	.	24raa	.	.	.
32B	.	.	.	.	.	.
32c#	8c#XJ	24a-L	24ee	.	.	.
32B	.	.	.	.	.	.
.	.	24b	12ff	.	.	.
32F	.	.	.	.	.	.
.	.	24cc#XJJ	.	.	.	.
32BJJJ	.	.	.	.	.	.
*v	*v	*	*	*	*	*
*clefG2	*	*	*	*	*
=259	=259	=259	=259	=259	=259
*^	*	*	*	*	*
*	*^	*	*	*	*	*
4r	32fLLL	4f	24rc	12raa	.	6gg]	.
.	32B	.	.	.	.	.	.
.	.	.	12gL	.	.	.	.
.	32F	.	.	.	.	.	.
.	.	.	.	24raa	.	.	.
.	32BJJ	.	.	.	.	.	.
.	16r	.	24a-XL	24ee	.	.	.
.	.	.	24b	12ff	.	[12aa-X	.
.	32fLL	.	.	.	.	.	.
.	.	.	24cc#XJJ	.	.	.	.
.	32bJJJ	.	.	.	.	.	.
8r	32eLLL	4e 4ee	8ee	12raa	.	6aa-]	.
.	32b	.	.	.	.	.	.
.	32f	.	.	.	.	.	.
.	.	.	.	24raa	.	.	.
.	32b	.	.	.	.	.	.
4f	32f	.	8rc	24gg	.	.	.
.	32B	.	.	.	.	.	.
.	.	.	.	12aa-X	.	[12b [12bb	.
.	32F	.	.	.	.	.	.
.	32BJJJ	.	.	.	.	.	.
.	32rc	4A-X 4a-X	24rc	12raa	.	6b] 6bb]	.
.	32BLLL	.	.	.	.	.	.
.	.	.	12eeL	.	.	.	.
.	32F	.	.	.	.	.	.
.	.	.	.	24raa	.	.	.
.	32B	.	.	.	.	.	.
8f	32f	.	24ffL	24aa-	.	.	.
.	32b	.	.	.	.	.	.
.	.	.	24gg	12bb	.	12cc#X 12ccc#X	.
.	32ff	.	.	.	.	.	.
.	.	.	24aa-JJ	.	.	.	.
.	32bJJJ	.	.	.	.	.	.
*	*v	*v	*	*	*	*	*
*v	*v	*	*	*	*	*
*clefF4	*	*	*	*	*
=260	=260	=260	=260	=260	=260
*^	*	*	*	*^	*
32fLLL	4f	24rc	12raa	.	4rc	[2.ee [2.eee	.
32B	.	.	.	.	.	.	.
.	.	12gL	.	.	.	.	.
32F	.	.	.	.	.	.	.
.	.	.	24raa	.	.	.	.
32BJJ	.	.	.	.	.	.	.
16r	.	[24a-Xk	24ee	.	.	.	.
.	.	12a-J]	12ff	.	.	.	.
32FLL	.	.	.	.	.	.	.
32GGJJJ	.	.	.	.	.	.	.
32CC#XLLL	8rc	24rc	12raa	.	[2G	.	.
32GG	.	.	.	.	.	.	.
.	.	12gL	.	.	.	.	.
32F	.	.	.	.	.	.	.
.	.	.	24raa	.	.	.	.
32B	.	.	.	.	.	.	.
32f	8f	24a-k	24ee	.	.	.	.
32B	.	.	.	.	.	.	.
.	.	12bJ	12ff	.	.	.	.
32F	.	.	.	.	.	.	.
32BJJJ	.	.	.	.	.	.	.
32eLLL	8eL	24rc	12raa	.	.	.	.
32B	.	.	.	.	.	.	.
.	.	12gL	.	.	.	.	.
32F	.	.	.	.	.	.	.
.	.	.	24raa	.	.	.	.
32B	.	.	.	.	.	.	.
32c#	8c#XJ	24a-L	24ee	.	.	.	.
32B	.	.	.	.	.	.	.
.	.	24b	12ff	.	.	.	.
32F	.	.	.	.	.	.	.
.	.	24cc#XJJ	.	.	.	.	.
32BJJJ	.	.	.	.	.	.	.
*	*	*v	*v	*	*	*	*
*clefG2	*	*	*	*	*	*
=261	=261	=261	=261	=261	=261	=261
32fLLL	4f	24r	.	6G]	2ee] 2eee]	.
32B	.	.	.	.	.	.
.	.	12gL	.	.	.	.
32F	.	.	.	.	.	.
32BJJ	.	.	.	.	.	.
16r	.	24a-XL	.	.	.	.
.	.	24b	.	[12A-X	.	.
32fLL	.	.	.	.	.	.
.	.	24cc#XJJ	.	.	.	.
32bJJJ	.	.	.	.	.	.
32ffLLL	8raa	8ee	.	6A-]	.	.
32b	.	.	.	.	.	.
32f	.	.	.	.	.	.
32b	.	.	.	.	.	.
32f	8f	8r	.	.	.	.
32B	.	.	.	.	.	.
.	.	.	.	[12B	.	.
32F	.	.	.	.	.	.
32BJJJ	.	.	.	.	.	.
32fLLL	8fL	4r	.	6B]	4a-X 4aa-X	.
32B	.	.	.	.	.	.
32F	.	.	.	.	.	.
32B	.	.	.	.	.	.
32f	8fJ	.	.	.	.	.
32b	.	.	.	.	.	.
.	.	.	.	12c#X	.	.
32ff	.	.	.	.	.	.
32bJJJ	.	.	.	.	.	.
*clefF4	*	*	*	*	*	*
=262	=262	=262	=262	=262	=262	=262
*	*	*^	*	*	*	*
*	*	*	*^	*	*	*	*
32fLLL	4f	24r	8rc	24raa	.	[4e	4raa	.
32B	.	.	.	.	.	.	.	.
.	.	[12g	.	24gLL	.	.	.	.
32F	.	.	.	.	.	.	.	.
.	.	.	.	24ee	.	.	.	.
32BJJ	.	.	.	.	.	.	.	.
16r	.	24gLL]	12ff	24ff	.	.	.	.
.	.	24a-JJ	.	24a-XJJ	.	.	.	.
32FLL	.	.	.	.	.	.	.	.
.	.	24r	24rc	24raa	.	.	.	.
32GGJJJ	.	.	.	.	.	.	.	.
32DDLLL	8rc	24r	8rc	24raa	.	8e]	[2gg	.
32GG	.	.	.	.	.	.	.	.
.	.	[12g	.	24gLL	.	.	.	.
32F	.	.	.	.	.	.	.	.
.	.	.	.	24ee	.	.	.	.
32B	.	.	.	.	.	.	.	.
32f	8f	24gLL]	12ff	24ff	.	8rc	.	.
32B	.	.	.	.	.	.	.	.
.	.	24a-	.	24a-	.	.	.	.
32F	.	.	.	.	.	.	.	.
.	.	24bJJ	24rc	24bJJ	.	.	.	.
32BJJJ	.	.	.	.	.	.	.	.
32eLLL	8eL	24r	8rc	24raa	.	4rc	.	.
32B	.	.	.	.	.	.	.	.
.	.	[12gL	.	24gLL	.	.	.	.
32F	.	.	.	.	.	.	.	.
.	.	.	.	24ee	.	.	.	.
32B	.	.	.	.	.	.	.	.
32c#	8c#XJ	32gLL]	8ff	32ffL	.	.	.	.
32B	.	32a-	.	32a-	.	.	.	.
32F	.	32b	.	32b	.	.	.	.
32BJJJ	.	32cc#JJJ	.	32cc#XJJJ	.	.	.	.
*clefG2	*	*	*	*	*	*	*	*
=263	=263	=263	=263	=263	=263	=263	=263	=263
32fLLL	4raa	24r	8rc	24raa	.	4rc	8gg]	.
32B	.	.	.	.	.	.	.	.
.	.	[12gL	.	24gLL	.	.	.	.
32F	.	.	.	.	.	.	.	.
.	.	.	.	24ee	.	.	.	.
32BJJ	.	.	.	.	.	.	.	.
16r	.	32gLL]	8ff	32ffL	.	.	4aa-X	.
.	.	32a-	.	32a-X	.	.	.	.
32fLL	.	32b	.	32b	.	.	.	.
32bJJJ	.	32cc#JJJ	.	32cc#XJJJ	.	.	.	.
32eLLL	4e 4ee	24r	8rc	24raa	.	4rc	.	.
32b	.	.	.	.	.	.	.	.
.	.	[12bL	.	24bLL	.	.	.	.
32f	.	.	.	.	.	.	.	.
.	.	.	.	24gg	.	.	.	.
32b	.	.	.	.	.	.	.	.
32f	.	24bL_	8aa-	24aa-X	.	.	4bb	.
32B	.	.	.	.	.	.	.	.
.	.	24bJJ]	.	24b	.	.	.	.
32F	.	.	.	.	.	.	.	.
.	.	24r	.	24ffJJ	.	.	.	.
32BJJJ	.	.	.	.	.	.	.	.
32rc	4A-X 4a-X	24r	8rc	24raa	.	4rc	.	.
32BLLL	.	.	.	.	.	.	.	.
.	.	[12cc#L	.	24cc#LL	.	.	.	.
32F	.	.	.	.	.	.	.	.
.	.	.	.	24gg	.	.	.	.
32B	.	.	.	.	.	.	.	.
32f	.	24cc#L_	8aa-	24aa-	.	.	8ccc#X	.
32b	.	.	.	.	.	.	.	.
.	.	12cc#JJ]	.	24cc#	.	.	.	.
32ff	.	.	.	.	.	.	.	.
.	.	.	.	24ffJJ	.	.	.	.
32bJJJ	.	.	.	.	.	.	.	.
*clefF4	*	*	*	*	*	*	*	*
=264	=264	=264	=264	=264	=264	=264	=264	=264
32fLLL	4f	24r	8rc	24raa	.	4rc	[2.ee [2.eee	.
32B	.	.	.	.	.	.	.	.
.	.	[12g	.	24gLL	.	.	.	.
32F	.	.	.	.	.	.	.	.
.	.	.	.	24ee	.	.	.	.
32BJJ	.	.	.	.	.	.	.	.
16r	.	24gLL]	12ff	24ff	.	.	.	.
.	.	24a-JJ	.	24a-XJJ	.	.	.	.
32FLL	.	.	.	.	.	.	.	.
.	.	24r	24rc	24raa	.	.	.	.
32GGJJJ	.	.	.	.	.	.	.	.
32CC#XLLL	8rc	24r	8rc	24raa	.	[2G	.	.
32GG	.	.	.	.	.	.	.	.
.	.	[12g	.	24gLL	.	.	.	.
32F	.	.	.	.	.	.	.	.
.	.	.	.	24ee	.	.	.	.
32B	.	.	.	.	.	.	.	.
32f	8f	24gLL]	12ff	24ff	.	.	.	.
32B	.	.	.	.	.	.	.	.
.	.	24a-	.	24a-	.	.	.	.
32F	.	.	.	.	.	.	.	.
.	.	24bJJ	24rc	24bJJ	.	.	.	.
32BJJJ	.	.	.	.	.	.	.	.
32eLLL	8eL	24r	8rc	24raa	.	.	.	.
32B	.	.	.	.	.	.	.	.
.	.	[12gL	.	24gLL	.	.	.	.
32F	.	.	.	.	.	.	.	.
.	.	.	.	24ee	.	.	.	.
32B	.	.	.	.	.	.	.	.
32c#	8c#XJ	32gLL]	8ff	32ffL	.	.	.	.
32B	.	32a-	.	32a-	.	.	.	.
32F	.	32b	.	32b	.	.	.	.
32BJJJ	.	32cc#JJJ	.	32cc#XJJJ	.	.	.	.
*	*	*	*v	*v	*	*	*	*
*	*	*v	*v	*	*	*	*
*clefG2	*	*	*	*	*	*
=265	=265	=265	=265	=265	=265	=265
32fLLL	4f	8ee	.	8G]	2ee] 2eee]	.
32B	.	.	.	.	.	.
32F	.	.	.	.	.	.
32BJJ	.	.	.	.	.	.
16r	.	8r	.	4A-X	.	.
32fLL	.	.	.	.	.	.
32bJJJ	.	.	.	.	.	.
32ffLLL	8raa	4r	.	.	.	.
32b	.	.	.	.	.	.
32f	.	.	.	.	.	.
32b	.	.	.	.	.	.
32f	8f	.	.	4B	.	.
32B	.	.	.	.	.	.
32F	.	.	.	.	.	.
32BJJJ	.	.	.	.	.	.
32fLLL	8fL	4r	.	.	4a-X 4aa-X	.
32B	.	.	.	.	.	.
32F	.	.	.	.	.	.
32B	.	.	.	.	.	.
32f	8fJ	.	.	8c#X	.	.
32b	.	.	.	.	.	.
32ff	.	.	.	.	.	.
32bJJJ	.	.	.	.	.	.
*v	*v	*	*	*	*	*
*clefF4	*clefF4	*	*	*	*
=266	=266	=266	=266	=266	=266
2.r	32fLLL	.	[2.e	8raa	.
.	32B	.	.	.	.
.	32F	.	.	.	.
.	32B	.	.	.	.
.	32f	.	.	4g	.
.	32B	.	.	.	.
.	32F	.	.	.	.
.	32GGJJJ	.	.	.	.
.	8CC#X	.	.	.	.
.	8r	.	.	8a-X	.
.	4r	.	.	8bL	.
.	.	.	.	8cc#XJ	.
=267	=267	=267	=267	=267	=267
2.r	2.r	.	2.e_	40gLLL	.
.	.	.	.	40a-X	.
.	.	.	.	40b	.
.	.	.	.	40cc#X	.
.	.	.	.	40eeJJJ	.
.	.	.	.	8raa	.
.	.	.	.	4raa	.
.	.	.	.	4raa	.
*	*	*	*v	*v	*
=268||	=268||	=268||	=268||	=268||
*M3/8	*M3/8	*	*M3/8	*
*	*	*	*^	*
4.r	4.r	.	8e]	4.ryy	.
.	.	.	8r	.	.
.	.	.	80d-XLLLL	.	.
.	.	.	80e--	.	.
.	.	.	80f	.	.
.	.	.	80g	.	.
.	.	.	80b-XJJJJ	.	.
.	.	.	16r	.	.
*	*	*	*v	*v	*
=269	=269	=269	=269	=269
4.r	16C#X 16Bn 16f	.	80gLLLL	.
.	.	.	80a-X	.
.	.	.	80bn	.
.	.	.	80cc#X	.
.	.	.	80eenJJJJ	.
.	16r	.	16r	.
.	8r	.	80dd-XLLLL	.
.	.	.	80ee--	.
.	.	.	80ff	.
.	.	.	80gg	.
.	.	.	80bb-XJJJJ	.
.	.	.	16r	.
.	.	.	32qgLLL	.
.	.	.	32qa-	.
.	.	.	32qbn	.
.	.	.	32qcc#	.
.	8qG 8qA-X 8qB 8qc#X 8qen	.	32qeenJJJ	.
.	8C#	.	32ggLLL	.
.	.	.	32aa-X	.
.	.	.	32bbn	.
.	.	.	32ccc#XJJJ	.
=270	=270	=270	=270	=270
*	*	*	*^	*
4.r	8GG 8F 8B 8a-X	.	16rc	8ee 8eee	.
.	.	.	8A-XL	.	.
.	8r	.	.	8raa	.
.	.	.	8B	.	.
.	8r	.	.	8raa	.
.	.	.	16c#XJk	.	.
=271	=271	=271	=271	=271	=271
4.r	[4.BBB-X [4.BB-X	.	[4.A-X [4.d [4.e	16raa	.
.	.	.	.	8cc-XL	.
.	.	.	.	8dd	.
.	.	.	.	16eeJk	.
=272	=272	=272	=272	=272	=272
4.r	8BBB-] 8BB-]	.	8A-] 8d] 8e]	[8ggL	.
.	8r	.	8rc	16ggJk]	.
.	.	.	.	16raa	.
.	8r	.	8rc	80B-XLLLL	.
.	.	.	.	80c-X	.
.	.	.	.	80d	.
.	.	.	.	80e	.
.	.	.	.	80gJJJJ	.
.	.	.	.	16raa	.
*	*	*	*v	*v	*
=273	=273	=273	=273	=273
4.r	16AA#X 16G#X 16d	.	80eLLLL	.
.	.	.	80f	.
.	.	.	80g#X	.
.	.	.	80a#X	.
.	.	.	80cc#XJJJJ	.
.	16r	.	16r	.
.	8r	.	80b-XLLLL	.
.	.	.	80cc-X	.
.	.	.	80dd	.
.	.	.	80ee	.
.	.	.	80ggnJJJJ	.
.	.	.	16r	.
.	.	.	32qeeLLL	.
.	.	.	32qff	.
.	.	.	32qgg#X	.
.	.	.	32qaa#X	.
.	8qE 8qF 8qG#X 8qA#X 8qc#X	.	32qccc#XJJJ	.
.	8AA#	.	32eeeLLL	.
.	.	.	32fff	.
.	.	.	32ggg#X	.
.	.	.	32aaa#XJJJ	.
=274	=274	=274	=274	=274
4.r	8GGn 8F 8B 8a-X	.	16ccc#X 16cccc#X	.
.	.	.	8A-XL	.
.	8r	.	.	.
.	.	.	8B	.
.	8r	.	.	.
.	.	.	16c#XJk	.
=275	=275	=275	=275	=275
*	*	*	*^	*
4.r	4.BBB-X 4.BB-X	.	4.A-X 4.d	[4.e	.
=276	=276	=276	=276	=276	=276
4.r	4.GGG 4.GG	.	4.F 4.Bn	4.e]	.
=277	=277	=277	=277	=277	=277
4.r	4.BBB-X 4.BB-X	.	4.A-X 4.d	4.f	.
*	*	*	*v	*v	*
=278||	=278||	=278||	=278||	=278||
*M2/8	*M2/8	*	*M2/8	*
4r	8GG 8F	.	8A-XL 8B 8c#X 8e	.
.	8r	.	8A-J 8B 8c# 8e 8f	.
=279	=279	=279	=279	=279
.	.	.	[8qe	.
4r	8BB-X 8A-X	.	8c-XL 8d 8e] 8g 8b-X	.
.	8r	.	8c-J 8d 8e 8g 8a-X	.
=280	=280	=280	=280	=280
4r	8BB-X 8A-X	.	8c-XL 8d 8e 8g	.
.	8r	.	8c-J 8d 8e 8g 8a-X	.
=281	=281	=281	=281	=281
.	.	.	[8qg	.
4r	8D-X 8c-X	.	8e--L 8f 8g] 8b-X 8dd-X	.
.	8r	.	8e--J 8f 8g 8b- 8cc-X	.
=282	=282	=282	=282	=282
*	*^	*	*	*
4r	8GG 8F 8Bn	24rc	.	8a-XL 8b 8cc#X 8ee	.
.	.	24A-XLL	.	.	.
.	.	24BJJ	.	.	.
.	8rEE	24c#XLL	.	8a-J 8b 8cc# 8ee 8ff	.
.	.	24eJJ	.	.	.
.	.	24rc	.	.	.
=283	=283	=283	=283	=283	=283
.	.	.	.	[8qee	.
4r	8BB-X 8A-X 8d	24rc	.	8cc-XL 8dd 8ee] 8gg 8bb-X	.
.	.	24c-XLL	.	.	.
.	.	24dJJ	.	.	.
.	8rEE	24eLL	.	8cc-J 8dd 8ee 8gg 8aa-X	.
.	.	24gJJ	.	.	.
.	.	24rc	.	.	.
=284	=284	=284	=284	=284	=284
4r	8BB-X 8A-X 8d	24rc	.	8a-XL 8cc-X 8dd 8ee 8gg	.
.	.	24c-XLL	.	.	.
.	.	24dJJ	.	.	.
.	8rEE	24eLL	.	8cc-J 8dd 8ee 8gg 8aa-X	.
.	.	24gJJ	.	.	.
.	.	24rc	.	.	.
=285	=285	=285	=285	=285	=285
.	.	.	.	[8qgg	.
4r	8D-X 8c-X 8f	24rc	.	8ee--L 8ff 8gg] 8bb-X 8ddd-X	.
.	.	24e--LL	.	.	.
.	.	24fJJ	.	.	.
.	8rEE	24gLL	.	8ee--J 8ff 8gg 8bb- 8ccc-X	.
.	.	24b-XJJ	.	.	.
.	.	24rc	.	.	.
*	*clefG2	*	*	*	*
=286	=286	=286	=286	=286	=286
.	.	.	.	[8qaa#X	.
4r	8En 8dn 8g#X	24raa	.	8ffL 8gg#X 8aa#] 8ccc#X 8eeen	.
.	.	24fLL	.	.	.
.	.	24g#JJ	.	.	.
.	8rc	24a#XLL	.	8ffJ 8gg# 8aa# 8ccc# 8ddd	.
.	.	24cc#XJJ	.	.	.
.	.	24raa	.	.	.
=287	=287	=287	=287	=287	=287
.	.	.	.	[8qccc#X	.
4r	8Gn 8f 8b	24raa	.	8aa-XL 8bb 8ccc#] 8eee 8ggg	.
.	.	24a-XLL	.	.	.
.	.	24bJJ	.	.	.
.	8rc	24cc#XLL	.	8aa-J 8bb 8ccc# 8eee 8fff	.
.	.	24eeJJ	.	.	.
.	.	24raa	.	.	.
*	*v	*v	*	*	*
=288	=288	=288	=288	=288
4r	8r	.	8r	.
.	8qe 8qf 8qg#X 8qa#X 8qcc#X	.	16qeeLL	.
.	.	.	16qff	.
.	.	.	16qgg#X	.
.	.	.	16qaa#X	.
.	.	.	16qccc#XJJ	.
.	[8A#X	.	8eee	.
=289	=289	=289	=289	=289
4r	8A#]	.	8eeeL	.
.	8r	.	32eeeLL	.
.	.	.	32fff	.
.	.	.	32ggg#X	.
.	.	.	32aaa#XJJJ	.
*	*clefF4	*	*	*
=290	=290	=290	=290	=290
4r	16GG 16C#X 16A-X	.	16ccc#X 16eee 16aaa-X 16cccc#X	.
.	16r	.	32r	.
.	.	.	32c#X 32e 32a-X	.
.	40A-LLL	.	[8d [8f [8b-X	.
.	40C#	.	.	.
.	40GG	.	.	.
.	40AA-X	.	.	.
.	40CC#XJJJ	.	.	.
=291	=291	=291	=291	=291
4r	40GGGLLL	.	8dL] 8f] 8b-]	.
.	40CC#X	.	.	.
.	40AA-X	.	.	.
.	40EE	.	.	.
.	40BB-XJJJ	.	.	.
.	[8c-X	.	[8eJ [8g [8cc-X	.
=292	=292	=292	=292	=292
4r	8c-]	.	8e] 8g] 8cc-]	.
*	*clefG2	*	*	*
.	8qe 8qf 8qg#X 8qa#X 8qcc#X	.	16qeeLL	.
.	.	.	16qff	.
.	.	.	16qgg#X	.
.	.	.	16qaa#X	.
.	.	.	16qccc#XJJ	.
.	[8A#X	.	8eee	.
=293	=293	=293	=293	=293
4r	8A#]	.	8eeeL	.
.	8r	.	32eeeLL	.
.	.	.	32fff	.
.	.	.	32ggg#X	.
.	.	.	32aaa#XJJJ	.
*	*clefF4	*	*	*
=294	=294	=294	=294	=294
4r	16GG 16C#X 16A-X	.	16ccc#X 16eee 16aaa-X 16cccc#X	.
.	16r	.	32r	.
.	.	.	32c#X 32e 32a-X	.
.	40A-LLL	.	[8d [8f [8b-X	.
.	40C#	.	.	.
.	40GG	.	.	.
.	40AA-X	.	.	.
.	40CC#XJJJ	.	.	.
=295	=295	=295	=295	=295
4r	40GGGLLL	.	8dL] 8f] 8b-]	.
.	40CC#X	.	.	.
.	40AA-X	.	.	.
.	40EE	.	.	.
.	40BB-XJJJ	.	.	.
.	[8c-X	.	8eJ 8g 8cc-X	.
=296	=296	=296	=296	=296
*	*^	*	*	*
4r	8rEE	16c-KL]	.	16fKL 16a-X 16dd-X	.
.	.	32r	.	32r	.
.	.	32A#XJkk	.	[32dnJkk 32f##X 32a#X 32ddn	.
.	48G#LLL	[8G#X	.	8d_ [8g#X [8b [8ee	.
.	48D	.	.	.	.
.	48FF##X	.	.	.	.
.	48CC#X	.	.	.	.
.	48DD	.	.	.	.
.	48FFF##XJJJ	.	.	.	.
=297	=297	=297	=297	=297	=297
4r	40CCC#XLLL	8G#L]	.	8dL] 8g#] 8b] 8ee]	.
.	40FFF##X	.	.	.	.
.	40DD	.	.	.	.
.	40AAA#X	.	.	.	.
.	40EEJJJ	.	.	.	.
.	8rEE	8GnJ	.	[8fnJ 8a#X 8cc#X 8ffn	.
=298	=298	=298	=298	=298	=298
4r	16rEE	16FKL	.	16fKL] 16b 16dd 16gg	.
.	32rEE	32r	.	32r	.
.	[8qGGG [8qCC#X	.	.	.	.
.	32GGG_ 32CC#_	32EJkk 32e	.	[32a-XJkk 32cc#X 32ee 32aa-X	.
.	8GGG_ 8CC#_	[8D [8d	.	8a-_ [8dd [8ff [8bb-X	.
=299	=299	=299	=299	=299	=299
4r	4GGG_ 4CC#_	4D_ 4d_	.	4a-_ 4dd_ 4ff_ 4bb-_	.
=300	=300	=300	=300	=300	=300
4r	8GGG] 8CC#]	8D] 8d]	.	8a-] 8dd] 8ff] 8bb-]	.
.	8GGG 8CC#X 8AA-X	8D 8d	.	8r	.
=301	=301	=301	=301	=301	=301
4r	8GGGL 8CC#X 8AA-X	8DL 8d	.	4r	.
.	8GGGJ 8CC# 8AA-	8DJ 8d	.	.	.
=302	=302	=302	=302	=302	=302
4r	8GGG 8CC#X 8AA-X	16DKL 16d	.	16r	.
.	.	32r	.	32r	.
.	.	32EJkk 32e	.	[32a-X 32cc#X 32ee 32aa-X	.
.	8rEE	[8D [8d	.	8a-_ [8dd [8ff [8bb-X	.
=303	=303	=303	=303	=303	=303
4r	4rEE	4D_ 4d_	.	4a-_ 4dd_ 4ff_ 4bb-_	.
=304	=304	=304	=304	=304	=304
4r	8rEE	8D] 8d]	.	8a-] 8dd] 8ff] 8bb-]	.
.	8GGG 8CC#X 8AA-X	8D 8d	.	8r	.
=305	=305	=305	=305	=305	=305
4r	8GGGL 8CC#X 8AA-X	8DL 8d	.	4r	.
.	8GGGJ 8CC# 8AA-	8DJ 8d	.	.	.
=306	=306	=306	=306	=306	=306
*	*	*	*	*^	*
4r	8GGG 8CC#X 8AA-X	8D 8d	.	8rc	8raa	.
.	8rEE	8rc	.	16eLL	8a-X 8bn 8dd	.
.	.	.	.	16A-XJJ	.	.
*	*v	*v	*	*	*	*
=307	=307	=307	=307	=307	=307
4r	4r	.	8rc	8dL 8f 8b-X	.
.	.	.	16eLL	8a-XJ 8bn 8dd	.
.	.	.	16A-XJJ	.	.
*	*	*	*v	*v	*
=308	=308	=308	=308	=308
4r	8r	.	8d 8f 8b-X	.
.	8qG 8qA-X 8qB 8qc#X 8qe	.	16qgLL	.
.	.	.	16qa-X	.
.	.	.	16qbn	.
.	.	.	16qcc#X	.
.	.	.	16qeeJJ	.
.	[8C#X	.	8gg	.
=309	=309	=309	=309	=309
4r	8C#]	.	8ggL	.
.	8r	.	32ggLL	.
.	.	.	32aa-X	.
.	.	.	32bb	.
.	.	.	32ccc#XJJJ	.
=310	=310	=310	=310	=310
*	*^	*	*	*
.	[8qGGG [8qCC#X [8qAA-X	.	.	.	.
4r	8GGG] 8CC#] 8AA-]	16DKL 16d	.	16eeKL 16aa-X 16bb 16eee	.
.	.	32r	.	32r	.
.	.	32EJkk 32e	.	[32a-XJkk 32cc#X 32ee 32aa-	.
.	8rEE	[8D [8d	.	8a-_ [8dd [8ff [8bb-X	.
=311	=311	=311	=311	=311	=311
4r	4rEE	4D_ 4d_	.	4a-_ 4dd_ 4ff_ 4bb-_	.
=312	=312	=312	=312	=312	=312
4r	8rEE	8D] 8d]	.	8a-] 8dd] 8ff] 8bb-]	.
.	8GGG 8CC#X 8AA-X	8D 8d	.	8r	.
=313	=313	=313	=313	=313	=313
4r	8GGGL 8CC#X 8AA-X	8DL 8d	.	4r	.
.	8GGGJ 8CC# 8AA-	8DJ 8d	.	.	.
=314	=314	=314	=314	=314	=314
*	*	*	*	*^	*
4r	8GGG 8CC#X 8AA-X	8D 8d	.	8rc	8raa	.
.	8rEE	8rc	.	16eLL	8a-X 8bn 8dd	.
.	.	.	.	16A-XJJ	.	.
*	*v	*v	*	*	*	*
=315	=315	=315	=315	=315	=315
4r	4r	.	8rc	8dL 8f 8b-X	.
.	.	.	16eLL	8a-XJ 8bn 8dd	.
.	.	.	16A-XJJ	.	.
*	*	*	*v	*v	*
=316	=316	=316	=316	=316
4r	8r	.	8d 8f 8b-X	.
.	8qG 8qA-X 8qB 8qc#X 8qe	.	16qgLL	.
.	.	.	16qa-X	.
.	.	.	16qbn	.
.	.	.	16qcc#X	.
.	.	.	16qeeJJ	.
.	[8C#X	.	8gg	.
=317	=317	=317	=317	=317
4r	8C#]	.	8ggL	.
.	8r	.	32ggLL	.
.	.	.	32aa-X	.
.	.	.	32bb	.
.	.	.	32ccc#XJJJ	.
=318	=318	=318	=318	=318
4r	8GG 8C#X 8A-X 8d	.	8ee 8aa-X 8bb 8eee	.
.	8qG 8qA-X 8qB 8qc#X 8qe	.	16qgLL	.
.	.	.	16qa-X	.
.	.	.	16qb	.
.	.	.	16qcc#X	.
.	.	.	16qeeJJ	.
.	[8C#	.	8gg	.
=319	=319	=319	=319	=319
4r	8C#]	.	8ggL	.
.	8r	.	40ggLL	.
.	.	.	40aa-X	.
.	.	.	40bb	.
.	.	.	40ccc#X	.
.	.	.	40eeeJJJ	.
=320	=320	=320	=320	=320
*	*^	*	*	*
4r	8rEE	8EE-X 8AAn 8F-X 8B-X	.	8gg 8cccn 8fff-X 8ggg	.
.	8AAA 8DD#X 8BB-X	8En 8en	.	8r	.
=321	=321	=321	=321	=321	=321
4r	8AAAL 8DD#X 8BB-X	8EL 8e	.	4r	.
.	8AAAJ 8DD# 8BB-	8EJ 8e	.	.	.
=322	=322	=322	=322	=322	=322
*	*	*	*	*^	*
4r	8AAA 8DD#X 8BB-X	8E 8e	.	8rc	8raa	.
.	8rEE	8rc	.	16f#XLL	8b-X 8cc#X 8ee	.
.	.	.	.	16B-XJJ	.	.
*	*v	*v	*	*	*	*
=323	=323	=323	=323	=323	=323
4r	4r	.	8rc	8eL 8g 8ccn	.
.	.	.	16f#XLL	8b-XJ 8cc#X 8ee	.
.	.	.	16B-XJJ	.	.
*	*	*	*v	*v	*
=324	=324	=324	=324	=324
4r	8r	.	8e 8g 8ccn	.
.	8qA 8qB-X 8qc#X 8qd#X 8qf#X	.	16qaLL	.
.	.	.	16qb-X	.
.	.	.	16qcc#X	.
.	.	.	16qdd#X	.
.	.	.	16qff#XJJ	.
.	[8D#X	.	8aa	.
=325	=325	=325	=325	=325
4r	8D#]	.	8aaL	.
.	8r	.	40aaLL	.
.	.	.	40bb-X	.
.	.	.	40ccc#X	.
.	.	.	40ddd#X	.
.	.	.	40fff#XJJJ	.
=326	=326	=326	=326	=326
*	*	*	*^	*
4r	8FFn 8BBn 8G-X 8cn	.	8rc	8aa 8dddn 8ggg-X 8aaa	.
.	8r	.	16g#XLL	8ccn 8dd#X 8ff#X	.
.	.	.	16cJJ	.	.
=327	=327	=327	=327	=327	=327
4r	4r	.	8rc	8f#XL 8a 8ddn	.
.	.	.	16g#XLL	8ccJ 8dd#X 8ff#X	.
.	.	.	16cJJ	.	.
*	*	*	*v	*v	*
=328	=328	=328	=328	=328
*	*^	*	*	*
4r	8rEE	8rc	.	8f#X 8a 8ddn	.
.	.	.	.	16qffnLL	.
.	.	.	.	16qgg-X	.
.	.	.	.	16qaa	.
.	.	.	.	16qbb	.
.	.	.	.	16qdddJJ	.
.	40dLLL 40dd	[8d [8dd	.	8fff	.
.	40a	.	.	.	.
.	40e-X	.	.	.	.
.	40A	.	.	.	.
.	40E-XJJJ	.	.	.	.
=329	=329	=329	=329	=329	=329
4r	8FF	8.dL] 8.dd]	.	8fffL	.
.	8rEE	.	.	48fffLL	.
.	.	.	.	48ggg-X	.
.	.	.	.	48aaa	.
.	.	16G-XJk 16g-X	.	48bbb	.
.	.	.	.	48dddd	.
.	.	.	.	48ffffJJJ	.
*	*v	*v	*	*	*
=330||	=330||	=330||	=330||	=330||
*M3/8	*M3/8	*	*M3/8	*
4.r	40CC#XLLL	.	32%3r	.
.	40GGn	.	.	.
.	40C#X	.	.	.
.	40A-X	.	.	.
.	.	.	32%3bbb-X 32%3dddd 32%3ffff 32%3aaaa-X	.
.	40dJJJ	.	.	.
.	8r	.	.	.
.	.	.	32%3dddL 32%3aaa-X 32%3bbbn 32%3eeee	.
.	40CC#LLL	.	.	.
.	40GG	.	.	.
.	.	.	32%3eeeJ 32%3aaa- 32%3bbb 32%3dddd	.
.	40C#	.	.	.
.	40A-	.	.	.
.	40dJJJ	.	.	.
=331	=331	=331	=331	=331
4.r	8r	.	32%3aa-XL 32%3ddd 32%3fff 32%3bbb-X	.
.	.	.	32%3bb-XJ 32%3ddd 32%3fff 32%3aaa-X	.
.	40CC#XLLL	.	.	.
.	40GG	.	.	.
.	40C#X	.	.	.
.	.	.	32%3ddL 32%3aa- 32%3bbn 32%3eee	.
.	40A-X	.	.	.
.	40dJJJ	.	.	.
.	8r	.	.	.
.	.	.	32%3eeJ 32%3aa- 32%3bb 32%3ddd	.
=332	=332	=332	=332	=332
4.r	40CC#XLLL	.	32%3a-XL 32%3dd 32%3ff 32%3bb-X	.
.	40GG	.	.	.
.	40C#X	.	.	.
.	40A-X	.	.	.
.	.	.	32%3eeeJ 32%3aaa-X 32%3bbb 32%3dddd	.
.	40dJJJ	.	.	.
.	8r	.	.	.
.	.	.	32%3aa-XL 32%3ddd 32%3fff 32%3bbb-X	.
.	40CC#LLL	.	.	.
.	40GG	.	.	.
.	.	.	32%3bb-J 32%3ddd 32%3fff 32%3aaa-	.
.	40C#	.	.	.
.	40A-	.	.	.
.	40dJJJ	.	.	.
=333	=333	=333	=333	=333
4.r	8r	.	32%3ddL 32%3aa-X 32%3bbn 32%3eee	.
.	.	.	32%3eeJ 32%3aa- 32%3bb 32%3ddd	.
.	40CC#XLLL	.	.	.
.	40GG	.	.	.
.	40C#X	.	.	.
.	.	.	32%3a-XL 32%3dd 32%3ff 32%3bb-X	.
.	40A-X	.	.	.
.	40dJJJ	.	.	.
.	8r	.	.	.
.	.	.	32%3b-XJ 32%3dd 32%3ff 32%3aa-X	.
=334	=334	=334	=334	=334
4.r	40CC#XLLL	.	32%3dL 32%3a-X 32%3bn 32%3ee	.
.	40GG	.	.	.
.	40C#X	.	.	.
.	40A-X	.	.	.
.	.	.	32%3bb-XJ 32%3ddd 32%3fff 32%3aaa-X	.
.	40dJJJ	.	.	.
.	8r	.	.	.
.	.	.	32%3ddL 32%3aa-X 32%3bbn 32%3eee	.
.	40CC#LLL	.	.	.
.	40GG	.	.	.
.	.	.	32%3eeJ 32%3aa- 32%3bb 32%3ddd	.
.	40C#	.	.	.
.	40A-	.	.	.
.	40dJJJ	.	.	.
=335	=335	=335	=335	=335
*	*^	*	*	*
4r	8rEE	8rc	.	8a-X 8dd 8ff 8bb-X	.
.	8DD-X 8GG 8E--	8A-X 8a-X	.	8r	.
=336	=336	=336	=336	=336	=336
4r	8DD-XL 8GG 8E--	8A-XL 8a-X	.	4r	.
.	8DD-J 8GG 8E--	8A-J 8a-	.	.	.
=337	=337	=337	=337	=337	=337
4r	8DD-X 8GG 8E--	16A-XKL 16a-X	.	16r	.
.	.	32r	.	32r	.
.	.	32B-XJkk 32b-X	.	[32ee-- 32gg 32bb-X 32eee--	.
.	8rEE	[8A- [8a-	.	8ee--_ [8aa-X [8ccc-X [8fff-X	.
=338	=338	=338	=338	=338	=338
4r	4rEE	4A-_ 4a-_	.	4ee--_ 4aa-_ 4ccc-_ 4fff-_	.
=339	=339	=339	=339	=339	=339
4r	8rEE	8A-] 8a-]	.	8ee--] 8aa-] 8ccc-] 8fff-]	.
.	8DD-X 8GG 8E--	8A-X 8a-X	.	8r	.
=340	=340	=340	=340	=340	=340
4r	8DD-XL 8GG 8E--	8A-XL 8a-X	.	4r	.
.	8DD-J 8GG 8E--	8A-J 8a-	.	.	.
=341	=341	=341	=341	=341	=341
*	*	*	*	*^	*
4r	8DD-X 8GG 8E--	8A-X 8a-X	.	8rc	8raa	.
.	8rEE	8rc	.	16b-XLL	8ee-- 8ffn 8aa-X	.
.	.	.	.	16e--JJ	.	.
*	*v	*v	*	*	*	*
=342	=342	=342	=342	=342	=342
4r	4r	.	8rc	8a-XL 8cc-X 8ff-X	.
.	.	.	16b-XLL	8ee--J 8ffn 8aa-X	.
.	.	.	16e--JJ	.	.
*	*	*	*v	*v	*
*	*clefG2	*	*	*
=343	=343	=343	=343	=343
4r	8r	.	8a-X 8cc-X 8ff-X	.
.	8qd-X 8qe-- 8qf 8qg 8qb-X	.	16qdd-XLL	.
.	.	.	16qee--	.
.	.	.	16qffn	.
.	.	.	16qgg	.
.	.	.	16qbb-XJJ	.
.	[8G	.	8ddd-X	.
=344	=344	=344	=344	=344
4r	8G]	.	8ddd-XL	.
.	8r	.	32ddd-LL	.
.	.	.	32eee--	.
.	.	.	32fff	.
.	.	.	32gggJJJ	.
*	*clefF4	*	*	*
=345	=345	=345	=345	=345
*	*^	*	*	*
.	[8qDD-X [8qGG [8qE--	.	.	.	.
4r	8DD-] 8GG] 8E--]	16A-XKL 16a-X	.	16bb-XKL 16eee-- 16fff 16bbb-X	.
.	.	32r	.	32r	.
.	.	32B-XJkk 32b-X	.	[32ee--Jkk 32gg 32bb-X 32eee--	.
.	8rEE	[8A- [8a-	.	8ee--_ [8aa-X [8ccc-X [8fff-X	.
=346	=346	=346	=346	=346	=346
4r	4rEE	4A-_ 4a-_	.	4ee--_ 4aa-_ 4ccc-_ 4fff-_	.
=347	=347	=347	=347	=347	=347
4r	8rEE	8A-] 8a-]	.	8ee--] 8aa-] 8ccc-] 8fff-]	.
.	8DD-X 8GG 8E--	8A-X 8a-X	.	8r	.
=348	=348	=348	=348	=348	=348
4r	8DD-XL 8GG 8E--	8A-XL 8a-X	.	4r	.
.	8DD-J 8GG 8E--	8A-J 8a-	.	.	.
=349	=349	=349	=349	=349	=349
*	*	*	*	*^	*
4r	8DD-X 8GG 8E--	8A-X 8a-X	.	8rc	8raa	.
.	8rEE	8rc	.	16b-XLL	8ee-- 8ffn 8aa-X	.
.	.	.	.	16e--JJ	.	.
*	*v	*v	*	*	*	*
=350	=350	=350	=350	=350	=350
4r	4r	.	8rc	8a-XL 8cc-X 8ff-X	.
.	.	.	16b-XLL	8ee--J 8ffn 8aa-X	.
.	.	.	16e--JJ	.	.
*	*	*	*v	*v	*
*	*clefG2	*	*	*
=351	=351	=351	=351	=351
4r	8r	.	8a-X 8cc-X 8ff-X	.
.	8qd-X 8qe-- 8qf 8qg 8qb-X	.	16qdd-XLL	.
.	.	.	16qee--	.
.	.	.	16qffn	.
.	.	.	16qgg	.
.	.	.	16qbb-XJJ	.
.	[8G	.	8ddd-X	.
=352	=352	=352	=352	=352
4r	8G]	.	8ddd-XL	.
.	8r	.	32ddd-LL	.
.	.	.	32eee--	.
.	.	.	32fff	.
.	.	.	32gggJJJ	.
*	*clefF4	*	*	*
=353	=353	=353	=353	=353
4r	8DD-X 8GG 8E-- 8A-X	.	8bb-X 8eee-- 8fff 8bbb-X	.
*	*clefG2	*	*	*
.	8qd-X 8qe-- 8qf 8qg 8qb-X	.	16qdd-XLL	.
.	.	.	16qee--	.
.	.	.	16qff	.
.	.	.	16qgg	.
.	.	.	16qbb-JJ	.
.	[8G	.	8ddd-X	.
=354	=354	=354	=354	=354
4r	8G]	.	8ddd-XL	.
.	8r	.	40ddd-LL	.
.	.	.	40eee--	.
.	.	.	40fff	.
.	.	.	40ggg	.
.	.	.	40bbb-XJJJ	.
*	*clefF4	*	*	*
=355	=355	=355	=355	=355
*	*^	*	*	*
4r	8rEE	8AA 8D#X 8B-X 8en	.	8ccc#X 8fff#X 8bbb-X 8cccc#X	.
.	8EE-X 8AA 8F-X	8B-X 8b-X	.	8r	.
=356	=356	=356	=356	=356	=356
4r	8EE-XL 8AA 8F-X	8B-XL 8b-X	.	4r	.
.	8EE-J 8AA 8F-	8B-J 8b-	.	.	.
=357	=357	=357	=357	=357	=357
*	*	*	*	*^	*
4r	8EE-X 8AA 8F-X	8B-X 8b-X	.	8rc	8raa	.
.	8rEE	8rc	.	16ccnLL	8ff-X 8gg 8bb-X	.
.	.	.	.	16f-XJJ	.	.
*	*v	*v	*	*	*	*
=358	=358	=358	=358	=358	=358
4r	4r	.	8rc	8b-XL 8dd-X 8gg-X	.
.	.	.	16ccLL	8ff-XJ 8ggn 8bb-X	.
.	.	.	16f-XJJ	.	.
*	*	*	*v	*v	*
*	*clefG2	*	*	*
=359	=359	=359	=359	=359
4r	8r	.	8b-X 8dd-X 8gg-X	.
.	.	.	16qee-XLL	.
.	.	.	16qff-X	.
.	.	.	16qggn	.
.	.	.	16qaa	.
.	8qe-X 8qf-X 8qg 8qa 8qcc	.	16qcccJJ	.
.	[8A	.	8eee-X	.
=360	=360	=360	=360	=360
4r	8A]	.	8eee-XL	.
.	8r	.	40eee-LL	.
.	.	.	40fff-X	.
.	.	.	40ggg	.
.	.	.	40aaa	.
.	.	.	40ccccJJJ	.
*	*clefF4	*	*	*
=361	=361	=361	=361	=361
*	*	*	*^	*
4r	8BB 8E#X 8c 8f#X	.	8rc	8ddd#X 8ggg#X 8cccc#X 8dddd#X	.
.	8r	.	16ddLL	8gg-X 8aa 8ccc#X	.
.	.	.	16g-XJJ	.	.
=362	=362	=362	=362	=362	=362
4r	4r	.	8rc	8ccL 8ee-X 8aa-X	.
.	.	.	16ddLL	8gg-XJ 8aan 8ccc	.
.	.	.	16g-XJJ	.	.
*	*	*	*v	*v	*
*	*clefG2	*	*	*
=363	=363	=363	=363	=363
*	*^	*	*	*
4r	8rc	8raa	.	8cc 8ee-X 8aa-X	.
.	.	.	.	16qbbLL	.
.	.	.	.	16qccc	.
.	.	.	.	16qddd#X	.
.	.	.	.	16qeee#X	.
.	.	.	.	16qggg#XJJ	.
.	40g#LLL 40gg#	[8g#X [8gg#X	.	8bbb	.
.	40dd#X	.	.	.	.
.	40an	.	.	.	.
.	40d#X	.	.	.	.
.	40AJJJ	.	.	.	.
=364	=364	=364	=364	=364	=364
4r	8BB	8.g#L] 8.gg#]	.	8bbbL	.
.	8rc	.	.	40bbbLL	.
.	.	.	.	40cccc	.
.	.	.	.	40dddd#X	.
.	.	16cJk 16cc	.	.	.
.	.	.	.	40eeee#X	.
.	.	.	.	40gggg#XJJJ	.
*	*v	*v	*	*	*
*	*clefF4	*	*	*
=365||	=365||	=365||	=365||	=365||
4.r	32GGGnLLL	.	32%3r	.
.	32CC#X	.	.	.
.	32AA-X	.	.	.
.	32DJJJ	.	32%3eeee 32%3aaaa-X 32%3bbbb 32%3ddddd	.
.	8r	.	.	.
.	.	.	32%3aaa-XL 32%3dddd 32%3ffff 32%3bbbb-X	.
.	32GGGLLL	.	.	.
.	32CC#	.	32%3bbb-XJ 32%3dddd 32%3ffff 32%3aaaa-X	.
.	32AA-	.	.	.
.	32DJJJ	.	.	.
=366	=366	=366	=366	=366
4.r	8r	.	32%3dddL 32%3aaa-X 32%3bbbn 32%3eeee	.
.	.	.	32%3eeeJ 32%3aaa- 32%3bbb 32%3dddd	.
.	32GGGLLL	.	.	.
.	32CC#X	.	.	.
.	32AA-X	.	32%3aa-XL 32%3ddd 32%3fff 32%3bbb-X	.
.	32DJJJ	.	.	.
.	8r	.	.	.
.	.	.	32%3bb-XJ 32%3ddd 32%3fff 32%3aaa-X	.
=367	=367	=367	=367	=367
4.r	32GGGLLL	.	32%3ddL 32%3aa-X 32%3bbn 32%3eee	.
.	32CC#X	.	.	.
.	32AA-X	.	.	.
.	32DJJJ	.	32%3bbb-XJ 32%3dddd 32%3ffff 32%3aaaa-X	.
.	8r	.	.	.
.	.	.	32%3dddL 32%3aaa-X 32%3bbbn 32%3eeee	.
.	32GGGLLL	.	.	.
.	32CC#	.	32%3eeeJ 32%3aaa- 32%3bbb 32%3dddd	.
.	32AA-	.	.	.
.	32DJJJ	.	.	.
=368	=368	=368	=368	=368
4.r	8r	.	32%3aa-XL 32%3ddd 32%3fff 32%3bbb-X	.
.	.	.	32%3bb-XJ 32%3ddd 32%3fff 32%3aaa-X	.
.	32GGGLLL	.	.	.
.	32CC#X	.	.	.
.	32AA-X	.	32%3ddL 32%3aa-X 32%3bbn 32%3eee	.
.	32DJJJ	.	.	.
.	8r	.	.	.
.	.	.	32%3eeJ 32%3aa- 32%3bb 32%3ddd	.
=369	=369	=369	=369	=369
4.r	32GGGLLL	.	32%3a-XL 32%3dd 32%3ff 32%3bb-X	.
.	32CC#X	.	.	.
.	32AA-X	.	.	.
.	32DJJJ	.	32%3eeeJ 32%3aaa-X 32%3bbbn 32%3dddd	.
.	8r	.	.	.
.	.	.	32%3aa-XL 32%3ddd 32%3fff 32%3bbb-X	.
.	32GGGLLL	.	.	.
.	32CC#	.	32%3bb-XJ 32%3ddd 32%3fff 32%3aaa-X	.
.	32AA-	.	.	.
.	32DJJJ	.	.	.
=370	=370	=370	=370	=370
*	*^	*	*	*
4r	8rEE	8rc	.	4r	.
.	8GGG 8CC#X 8AA-X	8D 8d	.	.	.
=371	=371	=371	=371	=371	=371
4r	8GGGL 8CC#X 8AA-X	8DL 8d	.	4r	.
.	8GGGJ 8CC# 8AA-	8DJ 8d	.	.	.
=372	=372	=372	=372	=372	=372
*M3/8	*M3/8	*M3/8	*	*M3/8	*
4.r	8GGGL 8CC#X 8AA-X	8DL 8d	.	32%3r	.
.	.	.	.	32%3ee 32%3aa-X 32%3bbn 32%3ddd	.
.	8r	8r	.	.	.
.	.	.	.	32%3a-XL 32%3dd 32%3ff 32%3bb-X	.
.	32GGGLLL	8r	.	.	.
.	32CC#	.	.	32%3b-XJ 32%3dd 32%3ff 32%3aa-X	.
.	32AA-	.	.	.	.
.	32DJJJ	.	.	.	.
=373	=373	=373	=373	=373	=373
*M2/8	*M2/8	*M2/8	*	*M2/8	*
4r	8rEE	8rc	.	4r	.
.	8GGG 8CC#X 8AA-X	8D 8d	.	.	.
=374	=374	=374	=374	=374	=374
4r	8GGGL 8CC#X 8AA-X	8DL 8d	.	4r	.
.	8GGGJ 8CC# 8AA-	8DJ 8d	.	.	.
=375	=375	=375	=375	=375	=375
*	*	*	*	*^	*
4r	8GGG 8CC#X 8AA-X	8D 8d	.	8rc	8raa	.
.	8rEE	8rc	.	16eLL	8a-X 8bn 8dd	.
.	.	.	.	16A-XJJ	.	.
*	*v	*v	*	*	*	*
=376	=376	=376	=376	=376	=376
4r	4r	.	8rc	8dL 8f 8b-X	.
.	.	.	16eLL	8a-XJ 8bn 8dd	.
.	.	.	16A-XJJ	.	.
=377	=377	=377	=377	=377	=377
4r	4r	.	8rc	8dL 8f 8b-X	.
.	.	.	16eLL	8a-XJ 8bn 8dd	.
.	.	.	16A-XJJ	.	.
=378	=378	=378	=378	=378	=378
4r	4r	.	8rc	8dL 8f 8b-X	.
.	.	.	16eLL	8a-XJ 8bn 8dd	.
.	.	.	16A-XJJ	.	.
*	*	*	*v	*v	*
=379	=379	=379	=379	=379
4r	4r	.	4r	.
=380	=380	=380	=380	=380
.	8qG 8qA-X 8qB 8qc#X 8qe	.	16qgLL	.
.	.	.	16qa-X	.
.	.	.	16qb	.
.	.	.	16qcc#X	.
.	.	.	16qeeJJ	.
4r	[4C#X	.	4gg	.
=381	=381	=381	=381	=381
4r	4C#]	.	4gg	.
=382	=382	=382	=382	=382
4r	4r	.	16ggLL	.
.	.	.	16aa-X	.
.	.	.	16bb	.
.	.	.	16ccc#XJJ	.
=383	=383	=383	=383	=383
*	*^	*	*	*
*	*	*^	*	*	*
*	*	*	*^	*	*	*
*	*	*	*	*^	*	*	*
.	[4qGGG	.	.	.	16qGGGLL	.	.	.
.	.	[4qGG	.	.	16qGG	.	.	.
.	.	.	[8.qC#	.	16qC#X	.	.	.
.	.	.	.	[8qF	16qF	.	.	.
.	16qGGG_	.	.	.	[16qBJJ	.	.	.
*	*	*	*	*	*	*	*^	*
4r	4GGG_	4GG_	4C#_	4F_	4B_	.	[4f [4a-X [4b [4cc#X [4ee	[4ff [4aa-X [4bb [4ccc#X [4eee	.
=384	=384	=384	=384	=384	=384	=384	=384	=384	=384
4r	4GGG_	4GG_	4C#_	4F_	4B_	.	4f_ 4a-_ 4b_ 4cc#_ 4ee_	4ff_ 4aa-_ 4bb_ 4ccc#_ 4eee_	.
=385	=385	=385	=385	=385	=385	=385	=385	=385	=385
4r	4GGG_	4GG_	4C#_	4F_	4B_	.	4f_ 4a-_ 4b_ 4cc#_ 4ee_	4ff_ 4aa-_ 4bb_ 4ccc#_ 4eee_	.
=386	=386	=386	=386	=386	=386	=386	=386	=386	=386
4r	4GGG]	4GG]	4C#]	4F]	4B]	.	4f] 4a-] 4b] 4cc#] 4ee]	4ff] 4aa-] 4bb] 4ccc#] 4eee]	.
*	*	*	*	*v	*v	*	*	*	*
*	*	*	*v	*v	*	*	*	*
*	*	*v	*v	*	*	*	*
*	*v	*v	*	*	*	*
*	*	*	*v	*v	*
==	==	==	==	==
*-	*-	*-	*-	*-
!!!system-decoration: {(*)}
!!!ENC: Bryan Jacob Bell
!!!END: November 2021 to April 2022
!!!PED: Günter Philipp
!!!PTL: Ausgewählte Klavierwerke (Edition Peters)
